;FLAVOR:Marlin
;TIME:5116
;Filament used: 1.63689m
;Layer height: 0.1
;MINX:-66.059
;MINY:-9.875
;MINZ:0.2
;MAXX:66.045
;MAXY:9.875
;MAXZ:15
;Generated with Cura_SteamEngine 4.4.1
M82 ;absolute extrusion mode
; Vertex Delta Start Gcode
M0 Is my nozzle clean?
M400
G28 ; Home extruder
M106 S128 ; Start fan
M104 T0 R130 ; Set cold nozzle
M109 T0 R130 ; Wait for cold nozzle
M117 Leveling bed...
G29 ; Level Bed
G1 X0 Y100 Z1 F2000
G92 Z0.9 ; Set Z position (SET Z OFFSET HERE -> 1 - OFFSET)
M107 ; Stop fan
G90 ; Absolute positioning
M82 ; Extruder in absolute mode
M104 T0 S210
G92 E0 ; Reset extruder position
M109 T0 S210
M117 Priming nozzle...
M83
; G1 E20 F100 ; purge/prime nozzle
M82
G92 E0 ; Reset extruder position
G4 S3 ; Wait 3 seconds
G1 Z5 F2000
M117 Vertex Delta printing
G92 E0
G92 E0
G1 F1500 E-3
;LAYER_COUNT:149
;LAYER:0
M107
G1 F600 Z0.7
G0 F11400 X-26.634 Y-5.375 Z0.7
;TYPE:SKIRT
G1 F600 Z0.2
G1 F1500 E0
G1 F1200 X26.634 Y-5.375 E1.55024
G1 X26.732 Y-5.706 E1.56028
G1 X27.004 Y-6.351 E1.58066
G1 X27.348 Y-6.96 E1.60101
G1 X27.76 Y-7.526 E1.62139
G1 X28.169 Y-7.978 E1.63913
G1 X28.272 Y-8.081 E1.64337
G1 X28.794 Y-8.547 E1.66373
G1 X29.366 Y-8.95 E1.68409
G1 X29.98 Y-9.285 E1.70445
G1 X30.629 Y-9.548 E1.72483
G1 X31.303 Y-9.735 E1.74518
G1 X31.994 Y-9.845 E1.76555
G1 X32.603 Y-9.875 E1.78329
G1 X37.397 Y-9.875 E1.92281
G1 X38.096 Y-9.835 E1.94319
G1 X38.785 Y-9.716 E1.96354
G1 X39.456 Y-9.518 E1.9839
G1 X40.101 Y-9.246 E2.00427
G1 X40.71 Y-8.902 E2.02462
G1 X41.276 Y-8.49 E2.045
G1 X41.728 Y-8.081 E2.06274
G1 X41.831 Y-7.978 E2.06698
G1 X42.297 Y-7.456 E2.08734
G1 X42.7 Y-6.884 E2.1077
G1 X43.035 Y-6.27 E2.12806
G1 X43.298 Y-5.621 E2.14844
G1 X43.366 Y-5.375 E2.15587
G1 X59.828 Y-5.375 E2.63495
G1 X60.527 Y-5.335 E2.65533
G1 X61.216 Y-5.216 E2.67568
G1 X61.887 Y-5.018 E2.69604
G1 X62.532 Y-4.746 E2.71641
G1 X63.141 Y-4.402 E2.73677
G1 X63.707 Y-3.99 E2.75714
G1 X64.316 Y-3.418 E2.78146
G1 X64.42 Y-3.306 E2.7859
G1 X64.866 Y-2.767 E2.80626
G1 X65.248 Y-2.18 E2.82665
G1 X65.56 Y-1.554 E2.847
G1 X65.799 Y-.896 E2.86738
G1 X65.961 Y-.216 E2.88772
G1 X66.045 Y0.479 E2.90809
G1 X66.043 Y1.269 E2.93108
G1 X65.858 Y4.045 E3.01205
G1 X65.772 Y4.74 E3.03243
G1 X65.607 Y5.42 E3.0528
G1 X65.366 Y6.076 E3.07314
G1 X65.051 Y6.701 E3.0935
G1 X64.667 Y7.286 E3.11387
G1 X64.219 Y7.824 E3.13424
G1 X63.943 Y8.1 E3.1456
G1 X63.842 Y8.195 E3.14964
G1 X63.306 Y8.644 E3.16999
G1 X62.722 Y9.029 E3.19034
G1 X62.098 Y9.346 E3.21071
G1 X61.442 Y9.589 E3.23107
G1 X60.762 Y9.755 E3.25144
G1 X60.068 Y9.843 E3.2718
G1 X59.714 Y9.858 E3.28211
G1 X58.174 Y9.875 E3.32693
G1 X-59.644 Y9.875 E6.75575
G1 X-60.343 Y9.835 E6.77612
G1 X-61.032 Y9.716 E6.79647
G1 X-61.703 Y9.518 E6.81683
G1 X-62.348 Y9.246 E6.8372
G1 X-62.957 Y8.902 E6.85756
G1 X-63.523 Y8.49 E6.87793
G1 X-63.84 Y8.212 E6.8902
G1 X-63.941 Y8.117 E6.89424
G1 X-64.423 Y7.609 E6.91462
G1 X-64.843 Y7.049 E6.93499
G1 X-65.197 Y6.446 E6.95534
G1 X-65.48 Y5.806 E6.97571
G1 X-65.688 Y5.138 E6.99607
G1 X-65.853 Y4.107 E7.02645
G1 X-66.034 Y1.662 E7.0978
G1 X-66.048 Y1.401 E7.10541
G1 X-66.059 Y1.048 E7.11569
G1 X-66.041 Y0.348 E7.13607
G1 X-65.943 Y-.345 E7.15644
G1 X-65.767 Y-1.022 E7.17679
G1 X-65.514 Y-1.674 E7.19715
G1 X-65.189 Y-2.294 E7.21752
G1 X-64.796 Y-2.872 E7.23786
G1 X-64.329 Y-3.412 E7.25864
G1 X-64.225 Y-3.519 E7.26298
G1 X-63.71 Y-3.992 E7.28333
G1 X-63.143 Y-4.403 E7.30371
G1 X-62.534 Y-4.747 E7.32407
G1 X-61.89 Y-5.019 E7.34441
G1 X-61.218 Y-5.216 E7.36479
G1 X-60.529 Y-5.335 E7.38514
G1 X-59.833 Y-5.375 E7.40543
G1 X-43.366 Y-5.375 E7.88466
G1 X-43.268 Y-5.706 E7.89471
G1 X-42.996 Y-6.351 E7.91508
G1 X-42.652 Y-6.96 E7.93544
G1 X-42.24 Y-7.526 E7.95581
G1 X-41.831 Y-7.978 E7.97355
G1 X-41.728 Y-8.081 E7.97779
G1 X-41.206 Y-8.547 E7.99815
G1 X-40.634 Y-8.95 E8.01852
G1 X-40.02 Y-9.285 E8.03887
G1 X-39.371 Y-9.548 E8.05925
G1 X-38.697 Y-9.735 E8.07961
G1 X-38.006 Y-9.845 E8.09997
G1 X-37.397 Y-9.875 E8.11772
G1 X-32.603 Y-9.875 E8.25723
G1 X-31.904 Y-9.835 E8.27761
G1 X-31.215 Y-9.716 E8.29796
G1 X-30.544 Y-9.518 E8.31832
G1 X-29.899 Y-9.246 E8.33869
G1 X-29.29 Y-8.902 E8.35905
G1 X-28.724 Y-8.49 E8.37942
G1 X-28.272 Y-8.081 E8.39716
G1 X-28.169 Y-7.978 E8.4014
G1 X-27.703 Y-7.456 E8.42176
G1 X-27.3 Y-6.884 E8.44213
G1 X-26.965 Y-6.27 E8.46248
G1 X-26.702 Y-5.621 E8.48286
G1 X-26.634 Y-5.375 E8.49029
G0 F11400 X-27.008 Y-5.434
G1 F1200 X-26.901 Y-5.025 E8.50259
G1 X26.893 Y-5.025 E10.06814
G1 X27.081 Y-5.644 E10.08697
G1 X27.353 Y-6.267 E10.10675
G1 X27.697 Y-6.853 E10.12653
G1 X28.107 Y-7.395 E10.14631
G1 X28.416 Y-7.731 E10.15959
G1 X28.519 Y-7.834 E10.16383
G1 X29.027 Y-8.285 E10.1836
G1 X29.585 Y-8.673 E10.20338
G1 X30.184 Y-8.994 E10.22316
G1 X30.816 Y-9.242 E10.24291
G1 X31.474 Y-9.414 E10.26271
G1 X32.147 Y-9.507 E10.28248
G1 X32.603 Y-9.525 E10.29576
G1 X37.397 Y-9.525 E10.43528
G1 X38.075 Y-9.485 E10.45504
G1 X38.744 Y-9.366 E10.47482
G1 X39.394 Y-9.169 E10.49459
G1 X40.017 Y-8.897 E10.51437
G1 X40.603 Y-8.553 E10.53415
G1 X41.145 Y-8.143 E10.55392
G1 X41.481 Y-7.834 E10.56721
G1 X41.584 Y-7.731 E10.57145
G1 X42.035 Y-7.223 E10.59122
G1 X42.423 Y-6.665 E10.611
G1 X42.744 Y-6.066 E10.63077
G1 X42.992 Y-5.434 E10.65053
G1 X43.099 Y-5.025 E10.66284
G1 X59.828 Y-5.025 E11.14969
G1 X60.506 Y-4.985 E11.16946
G1 X61.175 Y-4.866 E11.18924
G1 X61.825 Y-4.669 E11.209
G1 X62.448 Y-4.397 E11.22879
G1 X63.034 Y-4.053 E11.24856
G1 X63.576 Y-3.643 E11.26834
G1 X64.06 Y-3.18 E11.28783
G1 X64.164 Y-3.068 E11.29228
G1 X64.596 Y-2.543 E11.31207
G1 X64.964 Y-1.972 E11.33184
G1 X65.262 Y-1.362 E11.35159
G1 X65.486 Y-.72 E11.37138
G1 X65.633 Y-0.057 E11.39115
G1 X65.702 Y0.619 E11.41092
G1 X65.694 Y1.246 E11.42917
G1 X65.509 Y4.022 E11.51014
G1 X65.424 Y4.696 E11.52991
G1 X65.261 Y5.356 E11.54969
G1 X65.021 Y5.991 E11.56945
G1 X64.708 Y6.594 E11.58922
G1 X64.326 Y7.156 E11.609
G1 X63.704 Y7.845 E11.63601
G1 X63.603 Y7.94 E11.64005
G1 X63.081 Y8.375 E11.65982
G1 X62.512 Y8.746 E11.67959
G1 X61.904 Y9.048 E11.69935
G1 X61.264 Y9.277 E11.71913
G1 X60.602 Y9.428 E11.73889
G1 X59.71 Y9.508 E11.76495
G1 X58.17 Y9.525 E11.80978
G1 X-59.644 Y9.525 E15.23847
G1 X-60.322 Y9.485 E15.25824
G1 X-60.991 Y9.366 E15.27801
G1 X-61.641 Y9.169 E15.29778
G1 X-62.264 Y8.897 E15.31756
G1 X-62.85 Y8.553 E15.33734
G1 X-63.601 Y7.957 E15.36524
G1 X-63.702 Y7.862 E15.36928
G1 X-64.168 Y7.368 E15.38904
G1 X-64.574 Y6.823 E15.40882
G1 X-64.912 Y6.234 E15.42858
G1 X-65.179 Y5.609 E15.44836
G1 X-65.371 Y4.957 E15.46814
G1 X-65.504 Y4.081 E15.49393
G1 X-65.685 Y1.636 E15.56528
G1 X-65.698 Y1.39 E15.57245
G1 X-65.709 Y1.037 E15.58273
G1 X-65.69 Y0.358 E15.60249
G1 X-65.592 Y-.315 E15.62229
G1 X-65.415 Y-.971 E15.64206
G1 X-65.163 Y-1.601 E15.66181
G1 X-64.838 Y-2.198 E15.68159
G1 X-64.445 Y-2.752 E15.70136
G1 X-64.078 Y-3.168 E15.7175
G1 X-63.974 Y-3.275 E15.72184
G1 X-63.473 Y-3.734 E15.74162
G1 X-62.921 Y-4.13 E15.76139
G1 X-62.327 Y-4.459 E15.78115
G1 X-61.698 Y-4.716 E15.80093
G1 X-61.043 Y-4.897 E15.8207
G1 X-60.371 Y-5 E15.84049
G1 X-59.833 Y-5.025 E15.85616
G1 X-43.107 Y-5.025 E16.34293
G1 X-42.919 Y-5.644 E16.36176
G1 X-42.647 Y-6.267 E16.38154
G1 X-42.303 Y-6.853 E16.40132
G1 X-41.893 Y-7.395 E16.4211
G1 X-41.584 Y-7.731 E16.43438
G1 X-41.481 Y-7.834 E16.43862
G1 X-40.973 Y-8.285 E16.45839
G1 X-40.415 Y-8.673 E16.47817
G1 X-39.816 Y-8.994 E16.49795
G1 X-39.184 Y-9.242 E16.51771
G1 X-38.526 Y-9.414 E16.5375
G1 X-37.853 Y-9.507 E16.55727
G1 X-37.397 Y-9.525 E16.57055
G1 X-32.603 Y-9.525 E16.71007
G1 X-31.925 Y-9.485 E16.72984
G1 X-31.256 Y-9.366 E16.74961
G1 X-30.606 Y-9.169 E16.76938
G1 X-29.983 Y-8.897 E16.78916
G1 X-29.397 Y-8.553 E16.80894
G1 X-28.855 Y-8.143 E16.82871
G1 X-28.519 Y-7.834 E16.842
G1 X-28.416 Y-7.731 E16.84624
G1 X-27.965 Y-7.223 E16.86601
G1 X-27.577 Y-6.665 E16.88579
G1 X-27.256 Y-6.066 E16.90557
G1 X-27.008 Y-5.434 E16.92532
G0 F11400 X-27.317 Y-5.248
G1 F1200 X-27.177 Y-4.675 E16.94249
G1 X27.183 Y-4.675 E18.52451
G1 X27.234 Y-4.952 E18.53271
G1 X27.431 Y-5.58 E18.55186
G1 X27.703 Y-6.18 E18.57103
G1 X28.045 Y-6.743 E18.5902
G1 X28.664 Y-7.483 E18.61828
G1 X28.767 Y-7.586 E18.62252
G1 X29.26 Y-8.023 E18.64169
G1 X29.802 Y-8.396 E18.66084
G1 X30.386 Y-8.701 E18.68001
G1 X31.002 Y-8.933 E18.69917
G1 X31.642 Y-9.089 E18.71834
G1 X32.603 Y-9.175 E18.74642
G1 X37.397 Y-9.175 E18.88594
G1 X38.054 Y-9.135 E18.90509
G1 X38.702 Y-9.016 E18.92427
G1 X39.33 Y-8.819 E18.94342
G1 X39.93 Y-8.547 E18.9626
G1 X40.493 Y-8.205 E18.98177
G1 X41.233 Y-7.586 E19.00984
G1 X41.336 Y-7.483 E19.01408
G1 X41.773 Y-6.99 E19.03326
G1 X42.146 Y-6.448 E19.0524
G1 X42.451 Y-5.864 E19.07158
G1 X42.683 Y-5.248 E19.09073
G1 X42.823 Y-4.675 E19.1079
G1 X59.828 Y-4.675 E19.60279
G1 X60.485 Y-4.635 E19.62195
G1 X61.133 Y-4.516 E19.64112
G1 X61.761 Y-4.319 E19.66027
G1 X62.361 Y-4.047 E19.67945
G1 X62.924 Y-3.705 E19.69862
G1 X63.441 Y-3.297 E19.71778
G1 X63.803 Y-2.941 E19.73256
G1 X63.907 Y-2.829 E19.73701
G1 X64.325 Y-2.321 E19.75615
G1 X64.679 Y-1.765 E19.77534
G1 X64.962 Y-1.17 E19.79451
G1 X65.171 Y-.546 E19.81366
G1 X65.303 Y0.099 E19.83282
G1 X65.356 Y0.755 E19.85198
G1 X65.345 Y1.223 E19.8656
G1 X65.16 Y3.999 E19.94657
G1 X65.076 Y4.652 E19.96573
G1 X64.914 Y5.29 E19.98489
G1 X64.676 Y5.904 E20.00405
G1 X64.365 Y6.484 E20.0232
G1 X63.986 Y7.023 E20.04238
G1 X63.464 Y7.59 E20.06481
G1 X63.363 Y7.685 E20.06884
G1 X62.857 Y8.106 E20.088
G1 X62.303 Y8.463 E20.10718
G1 X61.711 Y8.75 E20.12633
G1 X61.088 Y8.963 E20.14549
G1 X60.443 Y9.099 E20.16467
G1 X59.706 Y9.158 E20.18619
G1 X58.166 Y9.175 E20.23101
G1 X-59.644 Y9.175 E23.65959
G1 X-60.301 Y9.135 E23.67875
G1 X-60.949 Y9.016 E23.69792
G1 X-61.577 Y8.819 E23.71707
G1 X-62.177 Y8.547 E23.73625
G1 X-62.74 Y8.205 E23.75542
G1 X-63.361 Y7.702 E23.77868
G1 X-63.462 Y7.607 E23.78271
G1 X-63.913 Y7.127 E23.80188
G1 X-64.303 Y6.597 E23.82103
G1 X-64.626 Y6.023 E23.8402
G1 X-64.877 Y5.414 E23.85937
G1 X-65.052 Y4.779 E23.87854
G1 X-65.155 Y4.056 E23.89979
G1 X-65.336 Y1.611 E23.97114
G1 X-65.348 Y1.379 E23.9779
G1 X-65.359 Y1.026 E23.98818
G1 X-65.34 Y0.368 E24.00734
G1 X-65.241 Y-.283 E24.0265
G1 X-65.064 Y-.917 E24.04566
G1 X-64.811 Y-1.525 E24.06482
G1 X-64.486 Y-2.098 E24.08399
G1 X-64.095 Y-2.628 E24.10316
G1 X-63.827 Y-2.924 E24.11478
G1 X-63.723 Y-3.031 E24.11912
G1 X-63.236 Y-3.475 E24.1383
G1 X-62.7 Y-3.856 E24.15744
G1 X-62.12 Y-4.169 E24.17662
G1 X-61.508 Y-4.41 E24.19576
G1 X-60.87 Y-4.575 E24.21494
G1 X-60.217 Y-4.661 E24.23411
G1 X-59.833 Y-4.675 E24.24529
G1 X-42.817 Y-4.675 E24.7405
G1 X-42.766 Y-4.952 E24.7487
G1 X-42.569 Y-5.58 E24.76786
G1 X-42.297 Y-6.18 E24.78703
G1 X-41.955 Y-6.743 E24.8062
G1 X-41.336 Y-7.483 E24.83428
G1 X-41.233 Y-7.586 E24.83851
G1 X-40.74 Y-8.023 E24.85769
G1 X-40.198 Y-8.396 E24.87684
G1 X-39.614 Y-8.701 E24.89601
G1 X-38.998 Y-8.933 E24.91517
G1 X-38.358 Y-9.089 E24.93434
G1 X-37.397 Y-9.175 E24.96242
G1 X-32.603 Y-9.175 E25.10193
G1 X-31.946 Y-9.135 E25.12109
G1 X-31.298 Y-9.016 E25.14026
G1 X-30.67 Y-8.819 E25.15942
G1 X-30.07 Y-8.547 E25.17859
G1 X-29.507 Y-8.205 E25.19776
G1 X-28.767 Y-7.586 E25.22584
G1 X-28.664 Y-7.483 E25.23008
G1 X-28.227 Y-6.99 E25.24925
G1 X-27.854 Y-6.448 E25.2684
G1 X-27.549 Y-5.864 E25.28757
G1 X-27.317 Y-5.248 E25.30673
G0 F11400 X-27.627 Y-5.065
G1 F1200 X-27.488 Y-4.443 E25.32528
G1 X-27.479 Y-4.325 E25.32872
G1 X27.473 Y-4.325 E26.92797
G1 X27.584 Y-4.908 E26.94524
G1 X27.781 Y-5.514 E26.96379
G1 X28.052 Y-6.09 E26.98231
G1 X28.393 Y-6.628 E27.00085
G1 X28.911 Y-7.236 E27.02409
G1 X29.014 Y-7.339 E27.02833
G1 X29.492 Y-7.76 E27.04687
G1 X30.019 Y-8.118 E27.06541
G1 X30.586 Y-8.407 E27.08393
G1 X31.185 Y-8.623 E27.10246
G1 X31.807 Y-8.762 E27.12101
G1 X32.603 Y-8.825 E27.14425
G1 X37.397 Y-8.825 E27.28377
G1 X38.033 Y-8.785 E27.30231
G1 X38.658 Y-8.666 E27.32083
G1 X39.264 Y-8.469 E27.33937
G1 X39.84 Y-8.198 E27.3579
G1 X40.378 Y-7.857 E27.37644
G1 X40.986 Y-7.339 E27.39968
G1 X41.089 Y-7.236 E27.40392
G1 X41.51 Y-6.758 E27.42246
G1 X41.868 Y-6.231 E27.441
G1 X42.157 Y-5.664 E27.45952
G1 X42.373 Y-5.065 E27.47805
G1 X42.512 Y-4.443 E27.4966
G1 X42.521 Y-4.325 E27.50005
G1 X59.828 Y-4.325 E28.00372
G1 X60.464 Y-4.285 E28.02227
G1 X61.089 Y-4.166 E28.04079
G1 X61.695 Y-3.969 E28.05933
G1 X62.271 Y-3.698 E28.07786
G1 X62.809 Y-3.357 E28.09639
G1 X63.3 Y-2.951 E28.11494
G1 X63.547 Y-2.703 E28.12512
G1 X63.651 Y-2.591 E28.12957
G1 X64.054 Y-2.098 E28.1481
G1 X64.392 Y-1.559 E28.16662
G1 X64.661 Y-.981 E28.18517
G1 X64.854 Y-.374 E28.20371
G1 X64.97 Y0.252 E28.22224
G1 X64.996 Y1.199 E28.24981
G1 X64.811 Y3.975 E28.33077
G1 X64.729 Y4.607 E28.34932
G1 X64.568 Y5.223 E28.36785
G1 X64.332 Y5.815 E28.3864
G1 X64.023 Y6.372 E28.40494
G1 X63.647 Y6.886 E28.42347
G1 X63.224 Y7.335 E28.44142
G1 X63.123 Y7.43 E28.44546
G1 X62.633 Y7.836 E28.46398
G1 X62.095 Y8.178 E28.48253
G1 X61.519 Y8.45 E28.50107
G1 X60.914 Y8.647 E28.51958
G1 X60.288 Y8.767 E28.53813
G1 X59.702 Y8.808 E28.55523
G1 X58.162 Y8.825 E28.60005
G1 X-59.644 Y8.825 E32.02851
G1 X-60.28 Y8.785 E32.04706
G1 X-60.905 Y8.666 E32.06558
G1 X-61.511 Y8.469 E32.08412
G1 X-62.087 Y8.198 E32.10265
G1 X-62.625 Y7.857 E32.12118
G1 X-63.121 Y7.447 E32.13991
G1 X-63.222 Y7.352 E32.14395
G1 X-63.658 Y6.887 E32.1625
G1 X-64.032 Y6.372 E32.18102
G1 X-64.338 Y5.813 E32.19957
G1 X-64.572 Y5.221 E32.21809
G1 X-64.73 Y4.604 E32.23663
G1 X-64.806 Y4.03 E32.25348
G1 X-64.987 Y1.585 E32.32483
G1 X-64.999 Y1.368 E32.33116
G1 X-65.01 Y1.015 E32.34143
G1 X-64.989 Y0.379 E32.35995
G1 X-64.89 Y-.25 E32.37848
G1 X-64.712 Y-.862 E32.39703
G1 X-64.459 Y-1.447 E32.41558
G1 X-64.135 Y-1.995 E32.43411
G1 X-63.576 Y-2.68 E32.45984
G1 X-63.472 Y-2.787 E32.46418
G1 X-63.001 Y-3.215 E32.4827
G1 X-62.479 Y-3.581 E32.50126
G1 X-61.916 Y-3.878 E32.51978
G1 X-61.32 Y-4.102 E32.53831
G1 X-60.7 Y-4.25 E32.55686
G1 X-59.833 Y-4.325 E32.58219
G1 X-42.527 Y-4.325 E33.08584
G1 X-42.416 Y-4.908 E33.10311
G1 X-42.219 Y-5.514 E33.12166
G1 X-41.948 Y-6.09 E33.14018
G1 X-41.607 Y-6.628 E33.15872
G1 X-41.089 Y-7.236 E33.18196
G1 X-40.986 Y-7.339 E33.1862
G1 X-40.508 Y-7.76 E33.20474
G1 X-39.981 Y-8.118 E33.22328
G1 X-39.414 Y-8.407 E33.2418
G1 X-38.815 Y-8.623 E33.26033
G1 X-38.193 Y-8.762 E33.27888
G1 X-37.397 Y-8.825 E33.30212
G1 X-32.603 Y-8.825 E33.44164
G1 X-31.967 Y-8.785 E33.46018
G1 X-31.342 Y-8.666 E33.4787
G1 X-30.736 Y-8.469 E33.49724
G1 X-30.16 Y-8.198 E33.51577
G1 X-29.622 Y-7.857 E33.53431
G1 X-29.014 Y-7.339 E33.55755
G1 X-28.911 Y-7.236 E33.56179
G1 X-28.49 Y-6.758 E33.58033
G1 X-28.132 Y-6.231 E33.59887
G1 X-27.843 Y-5.664 E33.61739
G1 X-27.627 Y-5.065 E33.63592
G0 F11400 X-27.94 Y-4.884
G1 F1200 X-27.818 Y-4.281 E33.65383
G1 X-27.797 Y-3.975 E33.66275
G1 X27.796 Y-3.975 E35.28066
G1 X27.815 Y-4.26 E35.28897
G1 X27.934 Y-4.863 E35.30686
G1 X28.131 Y-5.445 E35.32474
G1 X28.401 Y-5.997 E35.34262
G1 X28.741 Y-6.509 E35.36051
G1 X29.159 Y-6.988 E35.37901
G1 X29.262 Y-7.091 E35.38325
G1 X29.724 Y-7.496 E35.40113
G1 X30.234 Y-7.838 E35.419
G1 X30.785 Y-8.111 E35.4369
G1 X31.366 Y-8.31 E35.45477
G1 X31.969 Y-8.432 E35.47267
G1 X32.603 Y-8.475 E35.49117
G1 X37.397 Y-8.475 E35.63068
G1 X38.01 Y-8.435 E35.64856
G1 X38.613 Y-8.316 E35.66645
G1 X39.195 Y-8.119 E35.68433
G1 X39.747 Y-7.849 E35.70221
G1 X40.259 Y-7.509 E35.7201
G1 X40.738 Y-7.091 E35.7386
G1 X40.841 Y-6.988 E35.74284
G1 X41.246 Y-6.526 E35.76072
G1 X41.588 Y-6.016 E35.77859
G1 X41.861 Y-5.465 E35.79649
G1 X42.06 Y-4.884 E35.81436
G1 X42.182 Y-4.281 E35.83227
G1 X42.203 Y-3.975 E35.84119
G1 X59.828 Y-3.975 E36.35413
G1 X60.441 Y-3.935 E36.372
G1 X61.044 Y-3.816 E36.38989
G1 X61.626 Y-3.619 E36.40777
G1 X62.178 Y-3.349 E36.42566
G1 X62.69 Y-3.009 E36.44354
G1 X63.29 Y-2.465 E36.46711
G1 X63.394 Y-2.353 E36.47156
G1 X63.782 Y-1.877 E36.48943
G1 X64.105 Y-1.354 E36.50732
G1 X64.358 Y-.793 E36.52523
G1 X64.535 Y-.205 E36.5431
G1 X64.634 Y0.401 E36.56097
G1 X64.647 Y1.176 E36.58353
G1 X64.462 Y3.952 E36.6645
G1 X64.381 Y4.561 E36.68238
G1 X64.222 Y5.155 E36.70027
G1 X63.987 Y5.723 E36.71816
G1 X63.681 Y6.255 E36.73602
G1 X63.308 Y6.744 E36.75392
G1 X62.984 Y7.08 E36.76751
G1 X62.883 Y7.175 E36.77154
