;FLAVOR:Marlin
;TIME:376
;Filament used: 0.0947175m
;Layer height: 0.1
;MINX:-11.125
;MINY:-10.613
;MINZ:0.2
;MAXX:11.125
;MAXY:10.625
;MAXZ:4
;Generated with Cura_SteamEngine 4.4.1
M82 ;absolute extrusion mode
; Vertex Delta Start Gcode
M0 Is my nozzle clean?
M400
G28 ; Home extruder
M106 S128 ; Start fan
M104 T0 R130 ; Set cold nozzle
M109 T0 R130 ; Wait for cold nozzle
M117 Leveling bed...
G29 ; Level Bed
G1 X0 Y100 Z1 F2000
G92 Z0.9 ; Set Z position (SET Z OFFSET HERE -> 1 - OFFSET)
M107 ; Stop fan
G90 ; Absolute positioning
M82 ; Extruder in absolute mode
M104 T0 S210
G92 E0 ; Reset extruder position
M109 T0 S210
M117 Priming nozzle...
M83
; G1 E20 F100 ; purge/prime nozzle
M82
G92 E0 ; Reset extruder position
G4 S3 ; Wait 3 seconds
G1 Z5 F2000
M117 Vertex Delta printing
G92 E0
G92 E0
G1 F1500 E-3
;LAYER_COUNT:39
;LAYER:0
M107
G1 F600 Z0.7
G0 F11400 X-8.664 Y-4.327 Z0.7
;TYPE:SKIRT
G1 F600 Z0.2
G1 F1500 E0
G1 F1200 X-8.487 Y-4.824 E0.01535
G1 X-8.215 Y-5.469 E0.03573
G1 X-7.988 Y-5.89 E0.04965
G1 X-7.692 Y-6.391 E0.06658
G1 X-7.303 Y-6.972 E0.08693
G1 X-6.977 Y-7.367 E0.10183
G1 X-6.582 Y-7.807 E0.11904
G1 X-6.085 Y-8.3 E0.13942
G1 X-5.672 Y-8.635 E0.15489
G1 X-5.196 Y-8.988 E0.17214
G1 X-4.612 Y-9.372 E0.19248
G1 X-4.199 Y-9.59 E0.20607
G1 X-3.67 Y-9.844 E0.22315
G1 X-3.023 Y-10.11 E0.24351
G1 X-2.519 Y-10.26 E0.25881
G1 X-1.949 Y-10.404 E0.27592
G1 X-1.262 Y-10.537 E0.29628
G1 X-.751 Y-10.584 E0.31122
G1 X-.163 Y-10.613 E0.32835
G1 X0.537 Y-10.607 E0.34872
G1 X1.007 Y-10.558 E0.36248
G1 X1.587 Y-10.475 E0.37953
G1 X2.273 Y-10.337 E0.39989
G1 X2.773 Y-10.182 E0.41513
G1 X3.332 Y-9.983 E0.4324
G1 X3.977 Y-9.711 E0.45277
G1 X4.406 Y-9.479 E0.46696
G1 X4.906 Y-9.182 E0.48389
G1 X5.486 Y-8.791 E0.50424
G1 X5.866 Y-8.478 E0.51857
G1 X6.299 Y-8.09 E0.53549
G1 X6.792 Y-7.594 E0.55584
G1 X7.126 Y-7.183 E0.57126
G1 X7.48 Y-6.707 E0.58852
G1 X7.865 Y-6.123 E0.60888
G1 X8.08 Y-5.716 E0.62227
G1 X8.335 Y-5.188 E0.63934
G1 X8.603 Y-4.541 E0.65972
G1 X8.671 Y-4.314 E0.66661
G1 X8.817 Y-4.206 E0.6719
G1 X9.228 Y-3.831 E0.68809
G1 X9.331 Y-3.728 E0.69233
G1 X9.797 Y-3.206 E0.71269
G1 X10.2 Y-2.634 E0.73306
G1 X10.535 Y-2.02 E0.75341
G1 X10.798 Y-1.371 E0.77379
G1 X10.985 Y-.697 E0.79415
G1 X11.095 Y-0.006 E0.81451
G1 X11.125 Y0.603 E0.83226
G1 X11.125 Y4.397 E0.94267
G1 X11.085 Y5.096 E0.96305
G1 X10.966 Y5.785 E0.9834
G1 X10.768 Y6.456 E1.00376
G1 X10.496 Y7.101 E1.02413
G1 X10.152 Y7.71 E1.04449
G1 X9.74 Y8.276 E1.06486
G1 X9.331 Y8.728 E1.0826
G1 X9.228 Y8.831 E1.08684
G1 X8.706 Y9.297 E1.1072
G1 X8.134 Y9.7 E1.12757
G1 X7.52 Y10.035 E1.14792
G1 X6.871 Y10.298 E1.1683
G1 X6.197 Y10.485 E1.18866
G1 X5.506 Y10.595 E1.20902
G1 X4.897 Y10.625 E1.22677
G1 X-4.897 Y10.625 E1.5118
G1 X-5.596 Y10.585 E1.53217
G1 X-6.285 Y10.466 E1.55252
G1 X-6.956 Y10.268 E1.57288
G1 X-7.601 Y9.996 E1.59325
G1 X-8.21 Y9.652 E1.61361
G1 X-8.776 Y9.24 E1.63398
G1 X-9.228 Y8.831 E1.65172
G1 X-9.331 Y8.728 E1.65596
G1 X-9.797 Y8.206 E1.67633
G1 X-10.2 Y7.634 E1.69669
G1 X-10.535 Y7.02 E1.71705
G1 X-10.798 Y6.371 E1.73743
G1 X-10.985 Y5.697 E1.75778
G1 X-11.095 Y5.006 E1.77815
G1 X-11.125 Y4.397 E1.79589
G1 X-11.125 Y0.603 E1.90631
G1 X-11.085 Y-0.096 E1.92668
G1 X-10.966 Y-.785 E1.94703
G1 X-10.768 Y-1.456 E1.96739
G1 X-10.496 Y-2.101 E1.98776
G1 X-10.152 Y-2.71 E2.00812
G1 X-9.74 Y-3.276 E2.02849
G1 X-9.331 Y-3.728 E2.04623
G1 X-9.228 Y-3.831 E2.05047
G1 X-8.706 Y-4.297 E2.07084
G1 X-8.664 Y-4.327 E2.07234
G0 F11400 X-8.473 Y-4.035
G1 F1200 X-8.368 Y-4.108 E2.07606
G1 X-8.357 Y-4.144 E2.07715
G1 X-8.157 Y-4.707 E2.09454
G1 X-7.892 Y-5.333 E2.11433
G1 X-7.687 Y-5.712 E2.12687
G1 X-7.391 Y-6.213 E2.1438
G1 X-7.012 Y-6.776 E2.16355
G1 X-6.716 Y-7.133 E2.17705
G1 X-6.321 Y-7.573 E2.19426
G1 X-5.839 Y-8.051 E2.21401
G1 X-5.464 Y-8.354 E2.22804
G1 X-4.988 Y-8.707 E2.24529
G1 X-4.419 Y-9.079 E2.26507
G1 X-4.048 Y-9.274 E2.27727
G1 X-3.519 Y-9.528 E2.29435
G1 X-2.89 Y-9.786 E2.31414
G1 X-2.434 Y-9.921 E2.32798
G1 X-1.864 Y-10.065 E2.34509
G1 X-1.196 Y-10.192 E2.36487
G1 X-.733 Y-10.234 E2.3784
G1 X-.145 Y-10.263 E2.39554
G1 X0.534 Y-10.256 E2.4153
G1 X0.957 Y-10.212 E2.42768
G1 X1.537 Y-10.129 E2.44473
G1 X2.203 Y-9.993 E2.46451
G1 X2.656 Y-9.853 E2.47831
G1 X3.215 Y-9.654 E2.49558
G1 X3.84 Y-9.388 E2.51534
G1 X4.227 Y-9.178 E2.52816
G1 X4.727 Y-8.881 E2.54508
G1 X5.29 Y-8.5 E2.56487
G1 X5.632 Y-8.217 E2.57779
G1 X6.065 Y-7.829 E2.59471
G1 X6.543 Y-7.347 E2.61446
G1 X6.845 Y-6.974 E2.62843
G1 X7.199 Y-6.498 E2.64569
G1 X7.572 Y-5.93 E2.66547
G1 X7.765 Y-5.564 E2.67751
G1 X8.02 Y-5.036 E2.69458
G1 X8.279 Y-4.407 E2.71437
G1 X8.37 Y-4.102 E2.72364
G1 X8.683 Y-3.861 E2.73513
G1 X8.981 Y-3.584 E2.74697
G1 X9.084 Y-3.481 E2.75121
G1 X9.535 Y-2.973 E2.77098
G1 X9.923 Y-2.415 E2.79076
G1 X10.244 Y-1.816 E2.81054
G1 X10.492 Y-1.184 E2.8303
G1 X10.664 Y-.526 E2.85009
G1 X10.757 Y0.147 E2.86986
G1 X10.775 Y0.603 E2.88314
G1 X10.775 Y4.397 E2.99356
G1 X10.735 Y5.075 E3.01332
G1 X10.616 Y5.744 E3.0331
G1 X10.419 Y6.394 E3.05287
G1 X10.147 Y7.017 E3.07265
G1 X9.803 Y7.603 E3.09243
G1 X9.393 Y8.145 E3.1122
G1 X9.084 Y8.481 E3.12549
G1 X8.981 Y8.584 E3.12973
G1 X8.473 Y9.035 E3.1495
G1 X7.915 Y9.423 E3.16928
G1 X7.316 Y9.744 E3.18905
G1 X6.684 Y9.992 E3.20881
G1 X6.026 Y10.164 E3.22861
G1 X5.353 Y10.257 E3.24838
G1 X4.897 Y10.275 E3.26166
G1 X-4.897 Y10.275 E3.54669
G1 X-5.575 Y10.235 E3.56646
G1 X-6.244 Y10.116 E3.58623
G1 X-6.894 Y9.919 E3.606
G1 X-7.517 Y9.647 E3.62578
G1 X-8.103 Y9.303 E3.64556
G1 X-8.645 Y8.893 E3.66533
G1 X-8.981 Y8.584 E3.67862
G1 X-9.084 Y8.481 E3.68286
G1 X-9.535 Y7.973 E3.70263
G1 X-9.923 Y7.415 E3.72241
G1 X-10.244 Y6.816 E3.74219
G1 X-10.492 Y6.184 E3.76194
G1 X-10.664 Y5.526 E3.78174
G1 X-10.757 Y4.853 E3.80151
G1 X-10.775 Y4.397 E3.81479
G1 X-10.775 Y0.603 E3.92521
G1 X-10.735 Y-0.075 E3.94497
G1 X-10.616 Y-.744 E3.96475
G1 X-10.419 Y-1.394 E3.98451
G1 X-10.147 Y-2.017 E4.0043
G1 X-9.803 Y-2.603 E4.02407
G1 X-9.393 Y-3.145 E4.04385
G1 X-9.084 Y-3.481 E4.05714
G1 X-8.981 Y-3.584 E4.06137
G1 X-8.473 Y-4.035 E4.08114
G0 F11400 X-8.24 Y-3.773
G1 F1200 X-8.07 Y-3.89 E4.08715
G1 X-8.027 Y-4.027 E4.09133
G1 X-7.827 Y-4.59 E4.10872
G1 X-7.569 Y-5.196 E4.12789
G1 X-7.386 Y-5.534 E4.13907
G1 X-7.09 Y-6.035 E4.15601
G1 X-6.721 Y-6.58 E4.17516
G1 X-6.456 Y-6.899 E4.18723
G1 X-6.061 Y-7.339 E4.20444
G1 X-5.592 Y-7.801 E4.2236
G1 X-5.256 Y-8.073 E4.23618
G1 X-4.78 Y-8.426 E4.25342
G1 X-4.228 Y-8.785 E4.27259
G1 X-3.896 Y-8.958 E4.28348
G1 X-3.367 Y-9.212 E4.30056
G1 X-2.757 Y-9.461 E4.31974
G1 X-2.348 Y-9.582 E4.33215
G1 X-1.778 Y-9.726 E4.34926
G1 X-1.131 Y-9.848 E4.36842
G1 X-.716 Y-9.884 E4.38054
G1 X-.128 Y-9.913 E4.39768
G1 X0.53 Y-9.906 E4.41683
G1 X0.908 Y-9.865 E4.42789
G1 X1.488 Y-9.782 E4.44494
G1 X2.132 Y-9.65 E4.46407
G1 X2.538 Y-9.523 E4.47645
G1 X3.097 Y-9.324 E4.49372
G1 X3.703 Y-9.066 E4.51289
G1 X4.049 Y-8.877 E4.52437
G1 X4.549 Y-8.58 E4.54129
G1 X5.093 Y-8.21 E4.56044
G1 X5.398 Y-7.956 E4.57199
G1 X5.831 Y-7.568 E4.58891
G1 X6.294 Y-7.1 E4.60807
G1 X6.564 Y-6.765 E4.62059
G1 X6.918 Y-6.289 E4.63785
G1 X7.278 Y-5.738 E4.65701
G1 X7.45 Y-5.411 E4.66776
G1 X7.705 Y-4.883 E4.68482
G1 X7.955 Y-4.274 E4.70398
G1 X8.067 Y-3.898 E4.7154
G1 X8.733 Y-3.336 E4.74076
G1 X8.836 Y-3.233 E4.745
G1 X9.273 Y-2.74 E4.76417
G1 X9.646 Y-2.198 E4.78332
G1 X9.951 Y-1.614 E4.8025
G1 X10.183 Y-.998 E4.82165
G1 X10.339 Y-.358 E4.84082
G1 X10.425 Y0.603 E4.8689
G1 X10.425 Y4.397 E4.97932
G1 X10.385 Y5.054 E4.99847
G1 X10.266 Y5.702 E5.01765
G1 X10.069 Y6.33 E5.0368
G1 X9.797 Y6.93 E5.05598
G1 X9.455 Y7.493 E5.07515
G1 X8.836 Y8.233 E5.10322
G1 X8.733 Y8.336 E5.10746
G1 X8.24 Y8.773 E5.12664
G1 X7.698 Y9.146 E5.14578
G1 X7.114 Y9.451 E5.16496
G1 X6.498 Y9.683 E5.18411
G1 X5.858 Y9.839 E5.20328
G1 X4.897 Y9.925 E5.23136
G1 X-4.897 Y9.925 E5.5164
G1 X-5.554 Y9.885 E5.53555
G1 X-6.202 Y9.766 E5.55472
G1 X-6.83 Y9.569 E5.57388
G1 X-7.43 Y9.297 E5.59305
G1 X-7.993 Y8.955 E5.61222
G1 X-8.733 Y8.336 E5.6403
G1 X-8.836 Y8.233 E5.64454
G1 X-9.273 Y7.74 E5.66371
G1 X-9.646 Y7.198 E5.68286
G1 X-9.951 Y6.614 E5.70203
G1 X-10.183 Y5.998 E5.72119
G1 X-10.339 Y5.358 E5.74036
G1 X-10.425 Y4.397 E5.76844
G1 X-10.425 Y0.603 E5.87886
G1 X-10.385 Y-0.054 E5.89801
G1 X-10.266 Y-.702 E5.91719
G1 X-10.069 Y-1.33 E5.93634
G1 X-9.797 Y-1.93 E5.95551
G1 X-9.455 Y-2.493 E5.97468
G1 X-8.836 Y-3.233 E6.00276
G1 X-8.733 Y-3.336 E6.007
G1 X-8.24 Y-3.773 E6.02617
G0 F11400 X-8.008 Y-3.51
G1 F1200 X-7.772 Y-3.67 E6.03447
G1 X-7.697 Y-3.91 E6.04179
G1 X-7.497 Y-4.473 E6.05918
G1 X-7.247 Y-5.058 E6.07769
G1 X-7.084 Y-5.356 E6.08758
G1 X-6.788 Y-5.857 E6.10451
G1 X-6.431 Y-6.383 E6.12301
G1 X-6.195 Y-6.665 E6.13371
G1 X-5.8 Y-7.105 E6.15092
G1 X-5.346 Y-7.552 E6.16946
G1 X-5.047 Y-7.791 E6.1806
G1 X-4.571 Y-8.144 E6.19785
G1 X-4.037 Y-8.491 E6.21638
G1 X-3.745 Y-8.643 E6.22596
G1 X-3.216 Y-8.897 E6.24304
G1 X-2.625 Y-9.136 E6.26159
G1 X-2.262 Y-9.242 E6.2726
G1 X-1.692 Y-9.386 E6.28971
G1 X-1.066 Y-9.503 E6.30824
G1 X-.699 Y-9.535 E6.31896
G1 X-.111 Y-9.564 E6.3361
G1 X0.526 Y-9.555 E6.35464
G1 X0.858 Y-9.519 E6.36436
G1 X1.438 Y-9.436 E6.38141
G1 X2.061 Y-9.306 E6.39993
G1 X2.421 Y-9.193 E6.41091
G1 X2.98 Y-8.994 E6.42818
G1 X3.565 Y-8.743 E6.4467
G1 X3.87 Y-8.576 E6.45682
G1 X4.37 Y-8.279 E6.47375
G1 X4.896 Y-7.92 E6.49228
G1 X5.165 Y-7.696 E6.50247
G1 X5.598 Y-7.308 E6.51939
G1 X6.044 Y-6.854 E6.53791
G1 X6.283 Y-6.557 E6.54901
G1 X6.637 Y-6.081 E6.56627
G1 X6.985 Y-5.547 E6.58482
G1 X7.135 Y-5.259 E6.59427
G1 X7.39 Y-4.731 E6.61133
G1 X7.63 Y-4.141 E6.62987
G1 X7.74 Y-3.767 E6.64122
G1 X7.762 Y-3.679 E6.64386
G1 X7.914 Y-3.581 E6.64912
G1 X8.486 Y-3.089 E6.67108
G1 X8.589 Y-2.986 E6.67532
G1 X9.01 Y-2.508 E6.69385
G1 X9.368 Y-1.981 E6.7124
G1 X9.657 Y-1.414 E6.73092
G1 X9.873 Y-.815 E6.74945
G1 X10.012 Y-.193 E6.768
G1 X10.075 Y0.603 E6.79123
G1 X10.075 Y4.397 E6.90165
G1 X10.035 Y5.033 E6.9202
G1 X9.916 Y5.658 E6.93871
G1 X9.719 Y6.264 E6.95726
G1 X9.448 Y6.84 E6.97578
G1 X9.107 Y7.378 E6.99432
G1 X8.589 Y7.986 E7.01756
G1 X8.486 Y8.089 E7.0218
G1 X8.008 Y8.51 E7.04034
G1 X7.481 Y8.868 E7.05888
G1 X6.914 Y9.157 E7.0774
G1 X6.315 Y9.373 E7.09593
G1 X5.693 Y9.512 E7.11448
G1 X4.897 Y9.575 E7.13772
G1 X-4.897 Y9.575 E7.42275
G1 X-5.533 Y9.535 E7.4413
G1 X-6.158 Y9.416 E7.45981
G1 X-6.764 Y9.219 E7.47836
G1 X-7.34 Y8.948 E7.49688
G1 X-7.878 Y8.607 E7.51542
G1 X-8.486 Y8.089 E7.53867
G1 X-8.589 Y7.986 E7.54291
G1 X-9.01 Y7.508 E7.56144
G1 X-9.368 Y6.981 E7.57998
G1 X-9.657 Y6.414 E7.59851
G1 X-9.873 Y5.815 E7.61704
G1 X-10.012 Y5.193 E7.63559
G1 X-10.075 Y4.397 E7.65882
G1 X-10.075 Y0.603 E7.76924
G1 X-10.035 Y-0.033 E7.78778
G1 X-9.916 Y-.658 E7.8063
G1 X-9.719 Y-1.264 E7.82485
G1 X-9.448 Y-1.84 E7.84337
G1 X-9.107 Y-2.378 E7.86191
G1 X-8.589 Y-2.986 E7.88515
G1 X-8.486 Y-3.089 E7.88939
G1 X-8.008 Y-3.51 E7.90793
G0 F11400 X-7.776 Y-3.246
G1 F1200 X-7.474 Y-3.449 E7.91852
G1 X-7.47 Y-3.468 E7.91909
G1 X-7.367 Y-3.793 E7.92901
G1 X-7.167 Y-4.356 E7.9464
G1 X-6.783 Y-5.177 E7.97277
G1 X-6.487 Y-5.678 E7.98971
G1 X-6.141 Y-6.186 E8.0076
G1 X-5.935 Y-6.431 E8.01691
G1 X-5.54 Y-6.871 E8.03412
G1 X-5.101 Y-7.301 E8.052
G1 X-4.839 Y-7.51 E8.06176
G1 X-4.363 Y-7.863 E8.079
G1 X-3.593 Y-8.327 E8.10517
G1 X-3.064 Y-8.581 E8.12224
G1 X-2.494 Y-8.811 E8.14013
G1 X-2.176 Y-8.903 E8.14977
G1 X-1.606 Y-9.047 E8.16688
G1 X-1.002 Y-9.159 E8.18475
G1 X-.682 Y-9.185 E8.1941
G1 X-0.094 Y-9.214 E8.21123
G1 X0.808 Y-9.172 E8.23751
G1 X1.388 Y-9.089 E8.25456
G1 X1.99 Y-8.963 E8.27246
G1 X2.304 Y-8.863 E8.28205
G1 X2.863 Y-8.664 E8.29932
G1 X3.691 Y-8.275 E8.32594
G1 X4.191 Y-7.978 E8.34287
G1 X4.931 Y-7.435 E8.36958
G1 X5.364 Y-7.047 E8.3865
G1 X5.794 Y-6.608 E8.40438
G1 X6.002 Y-6.348 E8.41407
G1 X6.356 Y-5.872 E8.43134
G1 X6.82 Y-5.107 E8.45738
G1 X7.075 Y-4.579 E8.47444
G1 X7.305 Y-4.009 E8.49233
G1 X7.401 Y-3.681 E8.50228
G1 X7.457 Y-3.461 E8.50888
G1 X7.792 Y-3.234 E8.52066
G1 X8.238 Y-2.841 E8.53796
G1 X8.341 Y-2.738 E8.5422
G1 X8.746 Y-2.276 E8.56008
G1 X9.088 Y-1.766 E8.57795
G1 X9.361 Y-1.215 E8.59584
G1 X9.56 Y-.634 E8.61372
G1 X9.682 Y-0.031 E8.63162
G1 X9.725 Y0.603 E8.65012
G1 X9.725 Y4.397 E8.76053
G1 X9.685 Y5.01 E8.77841
G1 X9.566 Y5.613 E8.7963
G1 X9.369 Y6.195 E8.81418
G1 X9.099 Y6.747 E8.83206
G1 X8.759 Y7.259 E8.84995
G1 X8.341 Y7.738 E8.86845
G1 X8.238 Y7.841 E8.87269
G1 X7.776 Y8.246 E8.89057
G1 X7.266 Y8.588 E8.90844
G1 X6.715 Y8.861 E8.92634
G1 X6.134 Y9.06 E8.94421
G1 X5.531 Y9.182 E8.96211
G1 X4.897 Y9.225 E8.98061
G1 X-4.897 Y9.225 E9.26564
G1 X-5.51 Y9.185 E9.28352
G1 X-6.113 Y9.066 E9.3014
G1 X-6.695 Y8.869 E9.31928
G1 X-7.247 Y8.599 E9.33717
G1 X-7.759 Y8.259 E9.35505
G1 X-8.238 Y7.841 E9.37356
G1 X-8.341 Y7.738 E9.3778
G1 X-8.746 Y7.276 E9.39568
G1 X-9.088 Y6.766 E9.41355
G1 X-9.361 Y6.215 E9.43144
G1 X-9.56 Y5.634 E9.44931
G1 X-9.682 Y5.031 E9.46722
G1 X-9.725 Y4.397 E9.48571
G1 X-9.725 Y0.603 E9.59613
G1 X-9.685 Y-0.01 E9.61401
G1 X-9.566 Y-.613 E9.63189
G1 X-9.369 Y-1.195 E9.64977
G1 X-9.099 Y-1.747 E9.66766
G1 X-8.759 Y-2.259 E9.68555
G1 X-8.341 Y-2.738 E9.70405
G1 X-8.238 Y-2.841 E9.70829
G1 X-7.776 Y-3.246 E9.72617
G0 F11400 X-7.545 Y-2.982
G1 F1200 X-7.143 Y-3.247 E9.74018
G1 X-7.038 Y-3.676 E9.75303
G1 X-6.838 Y-4.239 E9.77042
G1 X-6.482 Y-4.999 E9.79484
G1 X-6.186 Y-5.5 E9.81178
G1 X-5.675 Y-6.198 E9.83695
G1 X-5.28 Y-6.638 E9.85416
G1 X-4.63 Y-7.229 E9.87973
G1 X-4.154 Y-7.582 E9.89698
G1 X-3.442 Y-8.012 E9.92118
G1 X-2.913 Y-8.266 E9.93826
G1 X-2.091 Y-8.564 E9.96371
G1 X-1.521 Y-8.708 E9.98082
G1 X-.665 Y-8.836 E10.00601
G1 X-0.077 Y-8.865 E10.02314
G1 X0.759 Y-8.826 E10.04749
G1 X1.339 Y-8.743 E10.06455
G1 X2.186 Y-8.534 E10.08994
G1 X2.745 Y-8.335 E10.1072
G1 X3.512 Y-7.974 E10.13187
G1 X4.012 Y-7.677 E10.1488
G1 X4.698 Y-7.174 E10.17356
G1 X5.131 Y-6.786 E10.19048
G1 X5.722 Y-6.139 E10.21598
G1 X6.076 Y-5.663 E10.23324
G1 X6.505 Y-4.955 E10.25733
G1 X6.76 Y-4.427 E10.2744
G1 X7.062 Y-3.596 E10.30013
G1 X7.15 Y-3.247 E10.31061
G1 X7.183 Y-3.23 E10.31169
G1 X7.665 Y-2.888 E10.32889
G1 X7.991 Y-2.594 E10.34166
G1 X8.094 Y-2.491 E10.3459
G1 X8.482 Y-2.045 E10.3631
G1 X8.808 Y-1.551 E10.38033
G1 X9.063 Y-1.018 E10.39753
G1 X9.245 Y-.456 E10.41472
G1 X9.349 Y0.126 E10.43192
G1 X9.375 Y0.603 E10.44583
G1 X9.375 Y4.397 E10.55624
G1 X9.335 Y4.987 E10.57345
G1 X9.216 Y5.566 E10.59065
G1 X9.02 Y6.124 E10.60787
G1 X8.75 Y6.65 E10.62507
G1 X8.412 Y7.135 E10.64228
G1 X8.094 Y7.491 E10.65617
G1 X7.991 Y7.594 E10.66041
G1 X7.545 Y7.982 E10.67761
G1 X7.051 Y8.308 E10.69484
G1 X6.518 Y8.563 E10.71203
G1 X5.956 Y8.745 E10.72922
G1 X5.374 Y8.849 E10.74643
G1 X4.897 Y8.875 E10.76033
G1 X-4.897 Y8.875 E11.04536
G1 X-5.487 Y8.835 E11.06257
G1 X-6.066 Y8.716 E11.07978
G1 X-6.624 Y8.52 E11.09699
G1 X-7.15 Y8.25 E11.1142
G1 X-7.635 Y7.912 E11.1314
G1 X-7.991 Y7.594 E11.14529
G1 X-8.094 Y7.491 E11.14953
G1 X-8.482 Y7.045 E11.16674
G1 X-8.808 Y6.551 E11.18396
G1 X-9.063 Y6.018 E11.20116
G1 X-9.245 Y5.456 E11.21835
G1 X-9.349 Y4.874 E11.23555
G1 X-9.375 Y4.397 E11.24946
G1 X-9.375 Y0.603 E11.35987
G1 X-9.335 Y0.013 E11.37708
G1 X-9.216 Y-.566 E11.39428
G1 X-9.02 Y-1.124 E11.4115
G1 X-8.75 Y-1.65 E11.4287
G1 X-8.412 Y-2.135 E11.44591
G1 X-8.094 Y-2.491 E11.4598
G1 X-7.991 Y-2.594 E11.46404
G1 X-7.545 Y-2.982 E11.48124
G0 F11400 X-7.315 Y-2.718
G1 F1200 X-6.839 Y-3.026 E11.49774
G1 X-6.838 Y-3.026 E11.49777
G1 X-6.708 Y-3.558 E11.51371
G1 X-6.508 Y-4.121 E11.5311
G1 X-6.18 Y-4.821 E11.55359
G1 X-5.884 Y-5.322 E11.57053
G1 X-5.414 Y-5.964 E11.59369
G1 X-5.019 Y-6.404 E11.61089
G1 X-4.422 Y-6.948 E11.6344
G1 X-3.946 Y-7.301 E11.65165
G1 X-3.29 Y-7.696 E11.67393
G1 X-2.761 Y-7.95 E11.69101
G1 X-2.005 Y-8.224 E11.71441
G1 X-1.435 Y-8.368 E11.73152
G1 X-.647 Y-8.486 E11.75471
G1 X-0.059 Y-8.515 E11.77184
G1 X0.709 Y-8.479 E11.79422
G1 X1.289 Y-8.396 E11.81127
G1 X2.069 Y-8.204 E11.83465
G1 X2.628 Y-8.005 E11.85192
G1 X3.334 Y-7.674 E11.87461
G1 X3.834 Y-7.377 E11.89153
G1 X4.464 Y-6.914 E11.91429
G1 X4.897 Y-6.526 E11.93121
G1 X5.441 Y-5.93 E11.95469
G1 X5.795 Y-5.454 E11.97195
G1 X6.189 Y-4.802 E11.99412
G1 X6.444 Y-4.274 E12.01119
G1 X6.722 Y-3.51 E12.03485
