;FLAVOR:Marlin
;TIME:728
;Filament used: 0.292441m
;Layer height: 0.1
;MINX:7.28
;MINY:-44.8
;MINZ:0.2
;MAXX:45.617
;MAXY:-5.836
;MAXZ:5.1
;Generated with Cura_SteamEngine 4.4.1
M82 ;absolute extrusion mode
; Vertex Delta Start Gcode
M0 Is my nozzle clean?
M400
G28 ; Home extruder
M106 S128 ; Start fan
M104 T0 R130 ; Set cold nozzle
M109 T0 R130 ; Wait for cold nozzle
M117 Leveling bed...
G29 ; Level Bed
G1 X0 Y100 Z1 F2000
G92 Z0.9 ; Set Z position (SET Z OFFSET HERE -> 1 - OFFSET)
M107 ; Stop fan
G90 ; Absolute positioning
M82 ; Extruder in absolute mode
M104 T0 S210
G92 E0 ; Reset extruder position
M109 T0 S210
M117 Priming nozzle...
M83
G1 E20 F100 ; purge/prime nozzle
M82
G92 E0 ; Reset extruder position
G4 S3 ; Wait 3 seconds
G1 Z5 F2000
M117 Vertex Delta printing
G92 E0
G92 E0
G1 F1500 E-3
;LAYER_COUNT:49
;LAYER:0
M107
G1 F600 Z0.3
G0 F11400 X9.962 Y-9.708 Z0.3
;TYPE:SKIRT
G1 F600 Z0.2
G1 F1500 E0
G1 F1200 X9.645 Y-10.095 E0.01456
G1 X9.215 Y-10.688 E0.03588
G1 X8.825 Y-11.301 E0.05702
G1 X8.46 Y-11.962 E0.079
G1 X8.244 Y-12.417 E0.09365
G1 X7.958 Y-13.133 E0.11609
G1 X7.733 Y-13.818 E0.13708
G1 X7.549 Y-14.514 E0.15803
G1 X7.449 Y-15.008 E0.17269
G1 X7.344 Y-15.773 E0.19517
G1 X7.291 Y-16.493 E0.21618
G1 X7.28 Y-17.224 E0.23745
G1 X7.303 Y-17.725 E0.25205
G1 X7.383 Y-18.467 E0.27377
G1 X7.504 Y-19.181 E0.29484
G1 X7.682 Y-19.937 E0.31745
G1 X7.828 Y-20.418 E0.33208
G1 X8.088 Y-21.118 E0.35381
G1 X8.381 Y-21.78 E0.37488
G1 X8.721 Y-22.438 E0.39643
G1 X8.978 Y-22.869 E0.41104
G1 X9.409 Y-23.498 E0.43323
G1 X9.855 Y-24.07 E0.45434
G1 X10.348 Y-24.629 E0.47603
G1 X10.703 Y-24.985 E0.49066
G1 X11.077 Y-25.324 E0.50535
G1 X10.612 Y-25.746 E0.52362
G1 X10.113 Y-26.268 E0.54464
G1 X9.624 Y-26.846 E0.56667
G1 X9.323 Y-27.251 E0.58136
G1 X8.91 Y-27.885 E0.60338
G1 X8.553 Y-28.515 E0.62445
G1 X8.229 Y-29.178 E0.64593
G1 X8.036 Y-29.641 E0.66053
G1 X7.785 Y-30.369 E0.68294
G1 X7.593 Y-31.065 E0.70395
G1 X7.44 Y-31.782 E0.72529
G1 X7.365 Y-32.28 E0.73994
G1 X7.299 Y-33.031 E0.76188
G1 X7.28 Y-33.754 E0.78293
G1 X7.307 Y-34.514 E0.80506
G1 X7.356 Y-35.013 E0.81966
G1 X7.472 Y-35.74 E0.84108
G1 X7.629 Y-36.448 E0.86219
G1 X7.842 Y-37.187 E0.88457
G1 X8.011 Y-37.659 E0.89916
G1 X8.305 Y-38.343 E0.92083
G1 X8.63 Y-38.99 E0.9419
G1 X9.007 Y-39.639 E0.96374
G1 X9.287 Y-40.059 E0.97843
G1 X9.737 Y-40.653 E1.00012
G1 X10.207 Y-41.2 E1.02111
G1 X10.741 Y-41.747 E1.04335
G1 X11.113 Y-42.084 E1.05796
G1 X11.573 Y-42.462 E1.07529
G1 X11.977 Y-42.762 E1.08993
G1 X12.619 Y-43.179 E1.11221
G1 X13.248 Y-43.534 E1.13323
G1 X14.052 Y-43.914 E1.15911
G1 X14.741 Y-44.18 E1.18061
G1 X15.459 Y-44.407 E1.20252
G1 X15.942 Y-44.528 E1.21701
G1 X16.69 Y-44.667 E1.23915
G1 X17.413 Y-44.755 E1.26035
G1 X18.165 Y-44.8 E1.28227
G1 X18.664 Y-44.799 E1.2968
G1 X19.4 Y-44.753 E1.31826
G1 X20.123 Y-44.664 E1.33946
G1 X20.878 Y-44.523 E1.36181
G1 X21.36 Y-44.401 E1.37628
G1 X22.069 Y-44.175 E1.39794
G1 X22.748 Y-43.912 E1.41913
G1 X23.421 Y-43.603 E1.44068
G1 X23.863 Y-43.367 E1.45526
G1 X24.513 Y-42.966 E1.47749
G1 X25.106 Y-42.547 E1.49862
G1 X25.819 Y-41.958 E1.52554
G1 X26.567 Y-41.238 E1.55575
G1 X26.687 Y-41.118 E1.56069
G1 X30.584 Y-37.152 E1.72251
G1 X37.789 Y-37.316 E1.93224
G1 X38.563 Y-37.285 E1.95479
G1 X39.004 Y-37.239 E1.96769
G1 X39.695 Y-37.127 E1.98806
G1 X40.368 Y-36.936 E2.00842
G1 X40.756 Y-36.788 E2.02051
G1 X41.16 Y-36.617 E2.03328
G1 X41.788 Y-36.307 E2.05366
G1 X42.377 Y-35.929 E2.07403
G1 X42.672 Y-35.7 E2.08489
G1 X43.01 Y-35.421 E2.09765
G1 X43.523 Y-34.945 E2.11802
G1 X43.979 Y-34.414 E2.13839
G1 X44.22 Y-34.075 E2.15049
G1 X44.464 Y-33.706 E2.16336
G1 X44.816 Y-33.102 E2.18371
G1 X45.097 Y-32.461 E2.20408
G1 X45.222 Y-32.088 E2.21553
G1 X45.348 Y-31.668 E2.22829
G1 X45.51 Y-30.987 E2.24866
G1 X45.594 Y-30.293 E2.269
G1 X45.606 Y-29.88 E2.28103
G1 X45.604 Y-29.439 E2.29386
G1 X45.561 Y-28.741 E2.31422
G1 X45.438 Y-28.052 E2.33458
G1 X45.332 Y-27.661 E2.34637
G1 X45.203 Y-27.243 E2.35911
G1 X44.958 Y-26.587 E2.37948
G1 X44.641 Y-25.963 E2.39985
G1 X44.433 Y-25.632 E2.41123
G1 X44.225 Y-25.322 E2.4221
G1 X44.379 Y-25.105 E2.42984
G1 X44.582 Y-24.758 E2.44154
G1 X44.793 Y-24.368 E2.45444
G1 X45.09 Y-23.734 E2.47482
G1 X45.313 Y-23.071 E2.49518
G1 X45.407 Y-22.678 E2.50694
G1 X45.495 Y-22.247 E2.51974
G1 X45.596 Y-21.555 E2.54009
G1 X45.617 Y-20.855 E2.56047
G1 X45.593 Y-20.454 E2.57216
G1 X45.552 Y-20.014 E2.58502
G1 X45.447 Y-19.322 E2.60539
G1 X45.264 Y-18.646 E2.62577
G1 X45.114 Y-18.244 E2.63826
G1 X44.948 Y-17.842 E2.65092
G1 X44.645 Y-17.212 E2.67126
G1 X44.271 Y-16.62 E2.69164
G1 X44.042 Y-16.319 E2.70265
G1 X43.761 Y-15.973 E2.71562
G1 X43.289 Y-15.456 E2.73599
G1 X42.762 Y-14.996 E2.75635
G1 X42.429 Y-14.755 E2.76832
G1 X42.064 Y-14.509 E2.78113
G1 X41.463 Y-14.152 E2.80147
G1 X40.824 Y-13.865 E2.82186
G1 X40.43 Y-13.73 E2.83398
G1 X40.011 Y-13.602 E2.84673
G1 X39.332 Y-13.436 E2.86707
G1 X38.637 Y-13.349 E2.88745
G1 X38.236 Y-13.335 E2.89913
G1 X37.333 Y-13.333 E2.92541
G1 X37.181 Y-13.335 E2.92983
G1 X30.584 Y-13.483 E3.12187
G1 X26.302 Y-9.127 E3.29964
G1 X26.053 Y-8.888 E3.30968
G1 X25.681 Y-8.55 E3.32431
G1 X25.074 Y-8.065 E3.34692
G1 X24.481 Y-7.65 E3.36799
G1 X23.854 Y-7.265 E3.3894
G1 X23.412 Y-7.029 E3.40398
G1 X22.732 Y-6.718 E3.42574
G1 X22.053 Y-6.456 E3.44692
G1 X21.336 Y-6.229 E3.46881
G1 X20.853 Y-6.108 E3.4833
G1 X20.105 Y-5.969 E3.50544
G1 X19.382 Y-5.881 E3.52664
G1 X18.63 Y-5.836 E3.54856
G1 X18.131 Y-5.837 E3.56309
G1 X17.395 Y-5.883 E3.58455
G1 X16.672 Y-5.972 E3.60575
G1 X15.917 Y-6.113 E3.6281
G1 X15.435 Y-6.235 E3.64257
G1 X14.726 Y-6.461 E3.66423
G1 X14.047 Y-6.724 E3.68542
G1 X13.365 Y-7.038 E3.70727
G1 X12.923 Y-7.275 E3.72186
G1 X12.29 Y-7.666 E3.74352
G1 X11.698 Y-8.083 E3.76459
G1 X11.005 Y-8.65 E3.79065
G1 X10.48 Y-9.149 E3.81173
G1 X9.962 Y-9.708 E3.83391
G0 F11400 X10.232 Y-9.93
G1 F1200 X9.915 Y-10.317 E3.84847
G1 X9.511 Y-10.876 E3.86854
G1 X9.121 Y-11.489 E3.88968
G1 X8.776 Y-12.112 E3.91041
G1 X8.56 Y-12.567 E3.92507
G1 X8.29 Y-13.242 E3.94622
G1 X8.065 Y-13.927 E3.96721
G1 X7.892 Y-14.583 E3.98695
G1 X7.792 Y-15.077 E4.00162
G1 X7.693 Y-15.799 E4.02283
G1 X7.64 Y-16.519 E4.04384
G1 X7.63 Y-17.208 E4.06389
G1 X7.653 Y-17.709 E4.07849
G1 X7.728 Y-18.409 E4.09898
G1 X7.849 Y-19.123 E4.12005
G1 X8.017 Y-19.835 E4.14134
G1 X8.163 Y-20.316 E4.15597
G1 X8.408 Y-20.976 E4.17646
G1 X8.701 Y-21.638 E4.19753
G1 X9.022 Y-22.259 E4.21787
G1 X9.279 Y-22.69 E4.23248
G1 X9.685 Y-23.283 E4.25339
G1 X10.131 Y-23.855 E4.2745
G1 X10.596 Y-24.382 E4.29495
G1 X10.951 Y-24.738 E4.30959
G1 X11.382 Y-25.129 E4.32652
G1 X11.618 Y-25.322 E4.33539
G1 X11.481 Y-25.429 E4.34045
G1 X10.865 Y-25.987 E4.36464
G1 X10.366 Y-26.509 E4.38566
G1 X9.905 Y-27.055 E4.40645
G1 X9.604 Y-27.46 E4.42114
G1 X9.215 Y-28.058 E4.4419
G1 X8.858 Y-28.688 E4.46297
G1 X8.552 Y-29.313 E4.48323
G1 X8.359 Y-29.776 E4.49783
G1 X8.122 Y-30.462 E4.51895
G1 X7.93 Y-31.158 E4.53996
G1 X7.786 Y-31.834 E4.56007
G1 X7.711 Y-32.332 E4.57473
G1 X7.649 Y-33.04 E4.59541
G1 X7.63 Y-33.763 E4.61646
G1 X7.656 Y-34.479 E4.63731
G1 X7.705 Y-34.978 E4.65191
G1 X7.814 Y-35.664 E4.67212
G1 X7.971 Y-36.372 E4.69323
G1 X8.172 Y-37.069 E4.71434
G1 X8.341 Y-37.541 E4.72893
G1 X8.617 Y-38.186 E4.74935
G1 X8.942 Y-38.833 E4.77042
G1 X9.298 Y-39.444 E4.791
G1 X9.578 Y-39.864 E4.80569
G1 X10.003 Y-40.425 E4.82617
G1 X10.473 Y-40.972 E4.84716
G1 X10.976 Y-41.488 E4.86813
G1 X11.348 Y-41.825 E4.88274
G1 X11.782 Y-42.181 E4.89907
G1 X12.186 Y-42.481 E4.91372
G1 X12.791 Y-42.874 E4.93471
G1 X13.42 Y-43.229 E4.95573
G1 X14.178 Y-43.587 E4.98013
G1 X14.867 Y-43.853 E5.00162
G1 X15.544 Y-44.068 E5.0223
G1 X16.027 Y-44.189 E5.03679
G1 X16.732 Y-44.32 E5.05766
G1 X17.455 Y-44.408 E5.07885
G1 X18.165 Y-44.45 E5.09955
G1 X18.664 Y-44.449 E5.11407
G1 X19.358 Y-44.406 E5.13431
G1 X20.081 Y-44.317 E5.15551
G1 X20.792 Y-44.183 E5.17657
G1 X21.274 Y-44.061 E5.19104
G1 X21.943 Y-43.848 E5.21147
G1 X22.622 Y-43.585 E5.23266
G1 X23.256 Y-43.294 E5.25296
G1 X23.698 Y-43.058 E5.26754
G1 X24.311 Y-42.68 E5.2885
G1 X24.904 Y-42.261 E5.30963
G1 X25.576 Y-41.706 E5.335
G1 X26.324 Y-40.986 E5.36521
G1 X26.438 Y-40.873 E5.36988
G1 X30.441 Y-36.8 E5.53608
G1 X37.797 Y-36.967 E5.75022
G1 X38.527 Y-36.937 E5.77148
G1 X38.968 Y-36.891 E5.78438
G1 X39.639 Y-36.781 E5.80417
G1 X40.291 Y-36.593 E5.82392
G1 X40.62 Y-36.465 E5.83419
G1 X41.024 Y-36.294 E5.84696
G1 X41.633 Y-35.993 E5.86673
G1 X42.449 Y-35.43 E5.89558
G1 X42.787 Y-35.151 E5.90834
G1 X43.285 Y-34.688 E5.92813
G1 X43.725 Y-34.17 E5.94791
G1 X43.928 Y-33.882 E5.95816
G1 X44.172 Y-33.513 E5.97104
G1 X44.513 Y-32.926 E5.99079
G1 X44.886 Y-31.987 E6.0202
G1 X45.012 Y-31.567 E6.03296
G1 X45.169 Y-30.906 E6.05273
G1 X45.247 Y-30.231 E6.07251
G1 X45.256 Y-29.882 E6.08267
G1 X45.254 Y-29.441 E6.0955
G1 X45.211 Y-28.763 E6.11527
G1 X45.089 Y-28.094 E6.13506
G1 X44.997 Y-27.764 E6.14503
G1 X44.868 Y-27.346 E6.15776
G1 X44.63 Y-26.71 E6.17753
G1 X44.143 Y-25.827 E6.20687
G1 X43.897 Y-25.461 E6.21971
G1 X43.794 Y-25.325 E6.22467
G1 X44.104 Y-24.885 E6.24034
G1 X44.274 Y-24.591 E6.25022
G1 X44.485 Y-24.201 E6.26312
G1 X44.773 Y-23.585 E6.28291
G1 X44.986 Y-22.94 E6.30268
G1 X45.064 Y-22.608 E6.31261
G1 X45.152 Y-22.177 E6.32541
G1 X45.249 Y-21.505 E6.34517
G1 X45.266 Y-20.826 E6.36494
G1 X45.244 Y-20.486 E6.37485
G1 X45.203 Y-20.046 E6.38771
G1 X45.1 Y-19.375 E6.40747
G1 X44.919 Y-18.72 E6.42725
G1 X44.791 Y-18.378 E6.43787
G1 X44.625 Y-17.976 E6.45053
G1 X44.329 Y-17.364 E6.47031
G1 X43.77 Y-16.539 E6.49932
G1 X43.489 Y-16.193 E6.51229
G1 X43.03 Y-15.692 E6.53206
G1 X42.516 Y-15.248 E6.55183
G1 X42.234 Y-15.045 E6.56194
G1 X41.869 Y-14.799 E6.57475
G1 X41.284 Y-14.453 E6.59453
G1 X40.662 Y-14.178 E6.61432
G1 X40.328 Y-14.065 E6.62459
G1 X39.909 Y-13.937 E6.63734
G1 X39.249 Y-13.777 E6.6571
G1 X38.235 Y-13.685 E6.68673
G1 X37.332 Y-13.683 E6.71301
G1 X37.189 Y-13.684 E6.71717
G1 X30.439 Y-13.836 E6.91367
G1 X26.053 Y-9.373 E7.09577
G1 X25.818 Y-9.147 E7.10526
G1 X25.446 Y-8.809 E7.11989
G1 X24.873 Y-8.352 E7.14122
G1 X24.28 Y-7.937 E7.16228
G1 X23.689 Y-7.574 E7.18247
G1 X23.247 Y-7.338 E7.19705
G1 X22.606 Y-7.044 E7.21757
G1 X21.927 Y-6.782 E7.23875
G1 X21.251 Y-6.568 E7.25939
G1 X20.768 Y-6.447 E7.27388
G1 X20.063 Y-6.316 E7.29475
G1 X19.34 Y-6.228 E7.31595
G1 X18.63 Y-6.186 E7.33665
G1 X18.131 Y-6.187 E7.35117
G1 X17.437 Y-6.23 E7.3714
G1 X16.714 Y-6.319 E7.3926
G1 X16.003 Y-6.453 E7.41366
G1 X15.521 Y-6.575 E7.42813
G1 X14.852 Y-6.788 E7.44856
G1 X14.173 Y-7.051 E7.46975
G1 X13.53 Y-7.346 E7.49034
G1 X13.088 Y-7.583 E7.50494
G1 X12.491 Y-7.952 E7.52536
G1 X11.899 Y-8.369 E7.54644
G1 X11.246 Y-8.904 E7.571
G1 X10.721 Y-9.403 E7.59208
G1 X10.232 Y-9.93 E7.61301
G0 F11400 X10.503 Y-10.151
G1 F1200 X10.186 Y-10.538 E7.62757
G1 X9.806 Y-11.064 E7.64645
G1 X9.416 Y-11.677 E7.66759
G1 X9.092 Y-12.262 E7.68706
G1 X8.876 Y-12.717 E7.70171
G1 X8.623 Y-13.351 E7.72158
G1 X8.398 Y-14.036 E7.74256
G1 X8.235 Y-14.653 E7.76114
G1 X8.135 Y-15.147 E7.7758
G1 X8.042 Y-15.825 E7.79572
G1 X7.989 Y-16.545 E7.81673
G1 X7.98 Y-17.192 E7.83556
G1 X8.003 Y-17.693 E7.85016
G1 X8.073 Y-18.35 E7.86939
G1 X8.194 Y-19.064 E7.89046
G1 X8.352 Y-19.734 E7.9105
G1 X8.498 Y-20.215 E7.92512
G1 X8.728 Y-20.835 E7.94437
G1 X9.021 Y-21.497 E7.96544
G1 X9.322 Y-22.079 E7.98451
G1 X9.579 Y-22.51 E7.99911
G1 X9.961 Y-23.068 E8.01879
G1 X10.407 Y-23.64 E8.0399
G1 X10.844 Y-24.135 E8.05912
G1 X11.199 Y-24.491 E8.07375
G1 X11.604 Y-24.858 E8.08965
G1 X11.99 Y-25.174 E8.10417
G1 X12.191 Y-25.319 E8.11138
G1 X11.697 Y-25.705 E8.12963
G1 X11.118 Y-26.229 E8.15236
G1 X10.619 Y-26.751 E8.17337
G1 X10.186 Y-27.264 E8.19291
G1 X9.885 Y-27.669 E8.20759
G1 X9.519 Y-28.23 E8.22709
G1 X9.162 Y-28.86 E8.24816
G1 X8.875 Y-29.448 E8.2672
G1 X8.682 Y-29.911 E8.2818
G1 X8.459 Y-30.555 E8.30164
G1 X8.267 Y-31.251 E8.32265
G1 X8.132 Y-31.886 E8.34154
G1 X8.057 Y-32.384 E8.3562
G1 X7.999 Y-33.049 E8.37562
G1 X7.98 Y-33.772 E8.39667
G1 X8.004 Y-34.445 E8.41627
G1 X8.053 Y-34.944 E8.43086
G1 X8.156 Y-35.588 E8.44984
G1 X8.313 Y-36.296 E8.47095
G1 X8.502 Y-36.951 E8.49079
G1 X8.671 Y-37.423 E8.50538
G1 X8.93 Y-38.029 E8.52456
G1 X9.255 Y-38.676 E8.54563
G1 X9.589 Y-39.25 E8.56496
G1 X9.869 Y-39.67 E8.57965
G1 X10.268 Y-40.196 E8.59886
G1 X10.738 Y-40.743 E8.61985
G1 X11.211 Y-41.229 E8.63959
G1 X11.583 Y-41.566 E8.6542
G1 X11.991 Y-41.9 E8.66954
G1 X12.395 Y-42.2 E8.68418
G1 X12.963 Y-42.569 E8.7039
G1 X13.592 Y-42.924 E8.72492
G1 X14.304 Y-43.261 E8.74784
G1 X14.993 Y-43.527 E8.76934
G1 X15.629 Y-43.728 E8.78875
G1 X16.112 Y-43.849 E8.80324
G1 X16.775 Y-43.972 E8.82286
G1 X17.498 Y-44.06 E8.84406
G1 X18.164 Y-44.1 E8.86348
G1 X18.663 Y-44.099 E8.878
G1 X19.315 Y-44.058 E8.89701
G1 X20.038 Y-43.969 E8.91821
G1 X20.706 Y-43.844 E8.93799
G1 X21.188 Y-43.722 E8.95246
G1 X21.816 Y-43.522 E8.97164
G1 X22.495 Y-43.259 E8.99283
G1 X23.091 Y-42.986 E9.01191
G1 X23.533 Y-42.75 E9.02649
G1 X24.109 Y-42.395 E9.04618
G1 X24.702 Y-41.976 E9.06731
G1 X25.333 Y-41.454 E9.09115
G1 X26.081 Y-40.734 E9.12136
G1 X26.188 Y-40.628 E9.12574
G1 X30.298 Y-36.447 E9.29637
G1 X37.805 Y-36.617 E9.5149
G1 X38.491 Y-36.589 E9.53488
G1 X38.932 Y-36.543 E9.54778
G1 X39.581 Y-36.435 E9.56693
G1 X40.484 Y-36.143 E9.59455
G1 X40.888 Y-35.972 E9.60732
G1 X41.477 Y-35.679 E9.62646
G1 X42.226 Y-35.16 E9.65298
G1 X42.564 Y-34.881 E9.66574
G1 X43.046 Y-34.432 E9.68491
G1 X43.636 Y-33.689 E9.71252
G1 X43.88 Y-33.32 E9.72539
G1 X44.209 Y-32.75 E9.74455
G1 X44.551 Y-31.887 E9.77156
G1 X44.677 Y-31.467 E9.78432
G1 X44.828 Y-30.826 E9.80349
G1 X44.906 Y-29.883 E9.83103
G1 X44.904 Y-29.442 E9.84386
G1 X44.861 Y-28.785 E9.86302
G1 X44.663 Y-27.867 E9.89035
G1 X44.534 Y-27.449 E9.90308
G1 X44.302 Y-26.833 E9.92224
G1 X43.852 Y-26.023 E9.94921
G1 X43.606 Y-25.657 E9.96204
G1 X43.349 Y-25.321 E9.97435
G1 X43.451 Y-25.207 E9.9788
G1 X43.966 Y-24.424 E10.00608
G1 X44.177 Y-24.034 E10.01898
G1 X44.455 Y-23.437 E10.03815
G1 X44.721 Y-22.538 E10.06543
G1 X44.809 Y-22.107 E10.07824
G1 X44.902 Y-21.455 E10.0974
G1 X44.896 Y-20.519 E10.12464
G1 X44.855 Y-20.079 E10.1375
G1 X44.754 Y-19.428 E10.15668
G1 X44.467 Y-18.511 E10.18464
G1 X44.301 Y-18.109 E10.1973
G1 X44.014 Y-17.517 E10.21644
G1 X43.498 Y-16.76 E10.24311
G1 X43.217 Y-16.414 E10.25608
G1 X42.772 Y-15.929 E10.27523
G1 X42.038 Y-15.335 E10.30271
G1 X41.673 Y-15.089 E10.31552
G1 X41.106 Y-14.755 E10.33467
G1 X40.226 Y-14.4 E10.36229
G1 X39.807 Y-14.272 E10.37504
G1 X39.167 Y-14.118 E10.3942
G1 X38.234 Y-14.035 E10.42146
G1 X37.331 Y-14.033 E10.44774
G1 X37.197 Y-14.034 E10.45164
G1 X30.296 Y-14.189 E10.65253
G1 X25.803 Y-9.618 E10.83906
G1 X25.582 Y-9.406 E10.84797
G1 X25.21 Y-9.068 E10.8626
G1 X24.673 Y-8.638 E10.88262
G1 X24.08 Y-8.223 E10.90368
G1 X23.524 Y-7.882 E10.92266
G1 X23.082 Y-7.646 E10.93725
G1 X22.48 Y-7.371 E10.95651
G1 X21.801 Y-7.109 E10.97769
G1 X21.166 Y-6.908 E10.99707
G1 X20.683 Y-6.787 E11.01156
G1 X20.02 Y-6.664 E11.03119
G1 X19.297 Y-6.576 E11.05238
G1 X18.631 Y-6.536 E11.0718
G1 X18.132 Y-6.537 E11.08632
G1 X17.48 Y-6.578 E11.10534
G1 X16.757 Y-6.667 E11.12654
G1 X16.089 Y-6.792 E11.14631
G1 X15.607 Y-6.914 E11.16078
G1 X14.979 Y-7.114 E11.17996
G1 X14.3 Y-7.377 E11.20116
G1 X13.695 Y-7.655 E11.22053
G1 X13.253 Y-7.892 E11.23513
G1 X12.693 Y-8.238 E11.25429
G1 X12.101 Y-8.655 E11.27536
G1 X11.488 Y-9.158 E11.29844
G1 X10.963 Y-9.657 E11.31952
G1 X10.503 Y-10.151 E11.33916
G0 F11400 X10.774 Y-10.373
G1 F1200 X10.457 Y-10.76 E11.35372
G1 X10.101 Y-11.252 E11.37139
G1 X9.711 Y-11.865 E11.39254
G1 X9.408 Y-12.413 E11.41076
G1 X9.192 Y-12.868 E11.42542
G1 X8.955 Y-13.46 E11.44398
G1 X8.73 Y-14.145 E11.46496
G1 X8.578 Y-14.722 E11.48233
G1 X8.478 Y-15.216 E11.49699
G1 X8.391 Y-15.85 E11.51562
G1 X8.338 Y-16.57 E11.53663
G1 X8.329 Y-17.176 E11.55427
G1 X8.352 Y-17.677 E11.56886
G1 X8.418 Y-18.292 E11.58686
G1 X8.539 Y-19.006 E11.60794
G1 X8.687 Y-19.632 E11.62666
G1 X8.833 Y-20.113 E11.64129
G1 X9.048 Y-20.693 E11.65929
G1 X9.341 Y-21.355 E11.68036
G1 X9.623 Y-21.9 E11.69822
G1 X9.88 Y-22.331 E11.71282
G1 X10.237 Y-22.853 E11.73123
G1 X10.683 Y-23.425 E11.75233
