;FLAVOR:Marlin
;TIME:727
;Filament used: 0.292005m
;Layer height: 0.1
;MINX:-19.167
;MINY:-11.482
;MINZ:0.2
;MAXX:19.17
;MAXY:27.48
;MAXZ:5.1
;Generated with Cura_SteamEngine 4.4.1
M82 ;absolute extrusion mode
; Vertex Delta Start Gcode
M0 Is my nozzle clean?
M400
G28 ; Home extruder
M106 S128 ; Start fan
M104 T0 R130 ; Set cold nozzle
M109 T0 R130 ; Wait for cold nozzle
M117 Leveling bed...
G29 ; Level Bed
G1 X0 Y100 Z1 F2000
G92 Z0.9 ; Set Z position (SET Z OFFSET HERE -> 1 - OFFSET)
M107 ; Stop fan
G90 ; Absolute positioning
M82 ; Extruder in absolute mode
M104 T0 S200
G92 E0 ; Reset extruder position
M109 T0 S200
M117 Priming nozzle...
M83
G1 E20 F100 ; purge/prime nozzle
M82
G92 E0 ; Reset extruder position
G4 S3 ; Wait 3 seconds
G1 Z5 F2000
M117 Vertex Delta printing
G92 E0
G92 E0
G1 F1500 E-3
;LAYER_COUNT:49
;LAYER:0
M107
G1 F600 Z0.3
G0 F6514.3 X4.139 Y-3.834 Z0.3
;TYPE:SKIRT
G1 F600 Z0.2
G1 F1500 E0
G1 F1200 X11.343 Y-3.997 E0.20971
G1 X12.103 Y-3.967 E0.23184
G1 X12.544 Y-3.922 E0.24475
G1 X13.235 Y-3.812 E0.26511
G1 X13.908 Y-3.623 E0.28545
G1 X14.309 Y-3.47 E0.29794
G1 X14.713 Y-3.299 E0.31071
G1 X15.341 Y-2.989 E0.33109
G1 X15.93 Y-2.611 E0.35146
G1 X16.225 Y-2.382 E0.36233
G1 X16.563 Y-2.103 E0.37508
G1 X17.076 Y-1.627 E0.39545
G1 X17.532 Y-1.096 E0.41582
G1 X17.773 Y-.757 E0.42792
G1 X18.017 Y-.388 E0.4408
G1 X18.369 Y0.216 E0.46114
G1 X18.65 Y0.857 E0.48151
G1 X18.776 Y1.234 E0.49308
G1 X18.902 Y1.655 E0.50587
G1 X19.064 Y2.336 E0.52624
G1 X19.147 Y3.03 E0.54658
G1 X19.159 Y3.439 E0.55849
G1 X19.157 Y3.879 E0.5713
G1 X19.114 Y4.577 E0.59165
G1 X18.991 Y5.266 E0.61202
G1 X18.886 Y5.653 E0.62369
G1 X18.757 Y6.072 E0.63645
G1 X18.513 Y6.728 E0.65681
G1 X18.196 Y7.352 E0.67718
G1 X17.982 Y7.693 E0.6889
G1 X17.777 Y7.996 E0.69955
G1 X17.937 Y8.221 E0.70758
G1 X18.135 Y8.56 E0.71901
G1 X18.346 Y8.95 E0.73191
G1 X18.643 Y9.584 E0.75229
G1 X18.866 Y10.247 E0.77264
G1 X18.961 Y10.642 E0.78447
G1 X19.049 Y11.074 E0.7973
G1 X19.149 Y11.767 E0.81768
G1 X19.17 Y12.466 E0.83803
G1 X19.145 Y12.867 E0.84972
G1 X19.104 Y13.306 E0.86255
G1 X19 Y13.997 E0.88289
G1 X18.817 Y14.673 E0.90327
G1 X18.667 Y15.074 E0.91573
G1 X18.501 Y15.476 E0.92839
G1 X18.198 Y16.106 E0.94873
G1 X17.824 Y16.698 E0.96911
G1 X17.6 Y16.993 E0.97989
G1 X17.319 Y17.34 E0.99288
G1 X16.848 Y17.857 E1.01324
G1 X16.322 Y18.318 E1.03359
G1 X15.973 Y18.571 E1.04614
G1 X15.608 Y18.816 E1.05893
G1 X15.005 Y19.172 E1.07931
G1 X14.366 Y19.457 E1.09967
G1 X13.996 Y19.584 E1.11106
G1 X13.577 Y19.713 E1.12382
G1 X12.898 Y19.88 E1.14417
G1 X12.204 Y19.969 E1.16453
G1 X11.782 Y19.984 E1.17682
G1 X10.879 Y19.985 E1.2031
G1 X10.734 Y19.983 E1.20732
G1 X4.137 Y19.835 E1.39936
G1 X-.145 Y24.192 E1.57714
G1 X-.519 Y24.543 E1.59207
G1 X-1.076 Y25.022 E1.61345
G1 X-1.672 Y25.474 E1.63522
G1 X-2.089 Y25.752 E1.6498
G1 X-2.741 Y26.131 E1.67175
G1 X-3.389 Y26.456 E1.69285
G1 X-4.063 Y26.745 E1.71419
G1 X-4.533 Y26.914 E1.72873
G1 X-5.27 Y27.128 E1.75106
G1 X-5.982 Y27.287 E1.77229
G1 X-6.729 Y27.406 E1.79431
G1 X-7.227 Y27.454 E1.80887
G1 X-7.967 Y27.48 E1.83042
G1 X-8.69 Y27.462 E1.85146
G1 X-9.438 Y27.397 E1.87331
G1 X-9.936 Y27.323 E1.88797
G1 X-10.676 Y27.166 E1.90998
G1 X-11.374 Y26.972 E1.93107
G1 X-12.08 Y26.729 E1.9528
G1 X-12.543 Y26.537 E1.96738
G1 X-13.227 Y26.202 E1.98955
G1 X-13.856 Y25.844 E2.01061
G1 X-14.593 Y25.35 E2.03643
G1 X-15.175 Y24.896 E2.05791
G1 X-15.844 Y24.291 E2.08416
G1 X-16.342 Y23.768 E2.10518
G1 X-16.812 Y23.211 E2.12639
G1 X-17.114 Y22.807 E2.14107
G1 X-17.537 Y22.16 E2.16357
G1 X-17.894 Y21.53 E2.18464
G1 X-18.218 Y20.867 E2.20612
G1 X-18.411 Y20.404 E2.22071
G1 X-18.662 Y19.676 E2.24313
G1 X-18.854 Y18.98 E2.26414
G1 X-19.007 Y18.261 E2.28553
G1 X-19.082 Y17.762 E2.30022
G1 X-19.148 Y17.013 E2.3221
G1 X-19.167 Y16.291 E2.34312
G1 X-19.14 Y15.533 E2.36519
G1 X-19.091 Y15.033 E2.37981
G1 X-18.974 Y14.302 E2.40136
G1 X-18.817 Y13.595 E2.42243
G1 X-18.605 Y12.858 E2.44475
G1 X-18.436 Y12.386 E2.45934
G1 X-18.142 Y11.702 E2.48101
G1 X-17.817 Y11.055 E2.50208
G1 X-17.44 Y10.406 E2.52392
G1 X-17.16 Y9.986 E2.53861
G1 X-16.71 Y9.392 E2.5603
G1 X-16.24 Y8.845 E2.58129
G1 X-15.72 Y8.31 E2.603
G1 X-15.372 Y7.993 E2.6167
G1 X-15.844 Y7.565 E2.63525
G1 X-16.342 Y7.042 E2.65626
G1 X-16.812 Y6.485 E2.67747
G1 X-17.114 Y6.081 E2.69215
G1 X-17.537 Y5.434 E2.71465
G1 X-17.894 Y4.804 E2.73572
G1 X-18.22 Y4.136 E2.75735
G1 X-18.413 Y3.672 E2.77198
G1 X-18.662 Y2.949 E2.79423
G1 X-18.854 Y2.253 E2.81525
G1 X-19.007 Y1.536 E2.83658
G1 X-19.082 Y1.038 E2.85124
G1 X-19.148 Y0.287 E2.87318
G1 X-19.167 Y-.435 E2.8942
G1 X-19.14 Y-1.193 E2.91627
G1 X-19.091 Y-1.693 E2.93089
G1 X-18.974 Y-2.424 E2.95244
G1 X-18.817 Y-3.131 E2.97351
G1 X-18.605 Y-3.868 E2.99583
G1 X-18.436 Y-4.34 E3.01042
G1 X-18.144 Y-5.021 E3.03199
G1 X-17.819 Y-5.669 E3.05308
G1 X-17.44 Y-6.321 E3.07503
G1 X-17.16 Y-6.741 E3.08972
G1 X-16.71 Y-7.335 E3.11141
G1 X-16.24 Y-7.882 E3.1324
G1 X-15.713 Y-8.423 E3.15438
G1 X-15.341 Y-8.761 E3.16901
G1 X-14.751 Y-9.234 E3.19101
G1 X-14.151 Y-9.657 E3.21238
G1 X-13.492 Y-10.062 E3.23489
G1 X-13.049 Y-10.297 E3.24948
G1 X-12.384 Y-10.6 E3.27075
G1 X-11.705 Y-10.862 E3.29193
G1 X-10.988 Y-11.089 E3.31382
G1 X-10.505 Y-11.21 E3.32831
G1 X-9.757 Y-11.349 E3.35045
G1 X-9.034 Y-11.437 E3.37165
G1 X-8.282 Y-11.482 E3.39357
G1 X-7.783 Y-11.481 E3.40809
G1 X-7.047 Y-11.435 E3.42956
G1 X-6.324 Y-11.346 E3.45076
G1 X-5.569 Y-11.205 E3.47311
G1 X-5.087 Y-11.083 E3.48758
G1 X-4.383 Y-10.859 E3.50908
G1 X-3.702 Y-10.596 E3.53032
G1 X-2.889 Y-10.211 E3.5565
G1 X-2.252 Y-9.85 E3.57781
G1 X-1.505 Y-9.35 E3.60397
G1 X-.923 Y-8.896 E3.62545
G1 X-.367 Y-8.406 E3.64702
G1 X0.195 Y-7.846 E3.67011
G1 X0.24 Y-7.801 E3.67196
G1 X4.139 Y-3.834 E3.83384
G0 F6514.3 X3.994 Y-3.482
G1 F1200 X11.351 Y-3.648 E4.048
G1 X12.067 Y-3.619 E4.06886
G1 X12.508 Y-3.574 E4.08176
G1 X13.179 Y-3.466 E4.10154
G1 X13.832 Y-3.279 E4.12131
G1 X14.173 Y-3.147 E4.13195
G1 X14.577 Y-2.976 E4.14471
G1 X15.186 Y-2.675 E4.16448
G1 X16.002 Y-2.112 E4.19334
G1 X16.34 Y-1.833 E4.20609
G1 X16.838 Y-1.37 E4.22588
G1 X17.278 Y-.852 E4.24566
G1 X17.481 Y-.564 E4.25591
G1 X17.725 Y-.195 E4.26879
G1 X18.066 Y0.392 E4.28855
G1 X18.441 Y1.334 E4.31805
G1 X18.567 Y1.755 E4.33084
G1 X18.723 Y2.416 E4.35061
G1 X18.8 Y3.091 E4.37038
G1 X18.809 Y3.437 E4.38045
G1 X18.807 Y3.877 E4.39326
G1 X18.764 Y4.555 E4.41303
G1 X18.551 Y5.55 E4.44264
G1 X18.422 Y5.969 E4.4554
G1 X18.185 Y6.606 E4.47518
G1 X17.874 Y7.21 E4.49495
G1 X17.692 Y7.498 E4.50487
G1 X17.446 Y7.863 E4.51768
G1 X17.344 Y7.996 E4.52255
G1 X17.827 Y8.727 E4.54805
G1 X18.038 Y9.117 E4.56096
G1 X18.326 Y9.733 E4.58075
G1 X18.539 Y10.378 E4.60051
G1 X18.618 Y10.712 E4.6105
G1 X18.706 Y11.144 E4.62333
G1 X18.802 Y11.817 E4.64312
G1 X18.797 Y12.834 E4.67272
G1 X18.756 Y13.273 E4.68555
G1 X18.653 Y13.945 E4.70533
G1 X18.472 Y14.599 E4.72508
G1 X18.344 Y14.94 E4.73568
G1 X18.178 Y15.342 E4.74834
G1 X17.882 Y15.954 E4.76812
G1 X17.328 Y16.772 E4.79688
G1 X17.047 Y17.119 E4.80987
G1 X16.589 Y17.621 E4.82965
G1 X16.075 Y18.066 E4.84943
G1 X15.778 Y18.28 E4.86009
G1 X15.413 Y18.525 E4.87288
G1 X14.827 Y18.87 E4.89267
G1 X13.893 Y19.249 E4.922
G1 X13.474 Y19.378 E4.93476
G1 X12.814 Y19.54 E4.95454
G1 X12.14 Y19.622 E4.9743
G1 X11.781 Y19.634 E4.98475
G1 X10.878 Y19.635 E5.01103
G1 X10.742 Y19.634 E5.01499
G1 X3.994 Y19.482 E5.21143
G1 X-.394 Y23.947 E5.39362
G1 X-.748 Y24.278 E5.40772
G1 X-1.305 Y24.757 E5.4291
G1 X-1.867 Y25.183 E5.44962
G1 X-2.284 Y25.461 E5.46421
G1 X-2.898 Y25.818 E5.48488
G1 X-3.546 Y26.143 E5.50598
G1 X-4.181 Y26.415 E5.52608
G1 X-4.651 Y26.584 E5.54062
G1 X-5.346 Y26.786 E5.56168
G1 X-6.058 Y26.945 E5.58291
G1 X-6.763 Y27.057 E5.60369
G1 X-7.261 Y27.105 E5.61825
G1 X-7.959 Y27.13 E5.63857
G1 X-8.682 Y27.112 E5.65962
G1 X-9.387 Y27.051 E5.68021
G1 X-9.885 Y26.977 E5.69487
G1 X-10.582 Y26.829 E5.7156
G1 X-11.28 Y26.635 E5.73669
G1 X-11.946 Y26.406 E5.75718
G1 X-12.409 Y26.214 E5.77177
G1 X-13.054 Y25.898 E5.79267
G1 X-13.683 Y25.54 E5.81374
G1 X-14.378 Y25.074 E5.83809
G1 X-14.96 Y24.62 E5.85957
G1 X-15.59 Y24.049 E5.88431
G1 X-16.088 Y23.526 E5.90533
G1 X-16.531 Y23.002 E5.9253
G1 X-16.833 Y22.598 E5.93998
G1 X-17.232 Y21.987 E5.96122
G1 X-17.589 Y21.357 E5.98229
G1 X-17.895 Y20.732 E6.00254
G1 X-18.088 Y20.269 E6.01714
G1 X-18.325 Y19.583 E6.03826
G1 X-18.517 Y18.887 E6.05928
G1 X-18.661 Y18.209 E6.07945
G1 X-18.736 Y17.71 E6.09413
G1 X-18.798 Y17.004 E6.11476
G1 X-18.817 Y16.282 E6.13578
G1 X-18.791 Y15.567 E6.1566
G1 X-18.742 Y15.067 E6.17122
G1 X-18.633 Y14.378 E6.19152
G1 X-18.476 Y13.671 E6.2126
G1 X-18.275 Y12.976 E6.23365
G1 X-18.106 Y12.504 E6.24824
G1 X-17.83 Y11.859 E6.26866
G1 X-17.505 Y11.212 E6.28973
G1 X-17.149 Y10.601 E6.31031
G1 X-16.869 Y10.181 E6.325
G1 X-16.444 Y9.62 E6.34549
G1 X-15.974 Y9.073 E6.36647
G1 X-15.484 Y8.569 E6.38693
G1 X-15.112 Y8.23 E6.40158
G1 X-14.826 Y8 E6.41226
G1 X-14.961 Y7.894 E6.41726
G1 X-15.59 Y7.323 E6.44198
G1 X-16.088 Y6.8 E6.463
G1 X-16.531 Y6.276 E6.48297
G1 X-16.833 Y5.872 E6.49764
G1 X-17.232 Y5.261 E6.51888
G1 X-17.589 Y4.631 E6.53996
G1 X-17.897 Y4.002 E6.56034
G1 X-18.09 Y3.538 E6.57496
G1 X-18.325 Y2.856 E6.59596
G1 X-18.517 Y2.16 E6.61697
G1 X-18.661 Y1.484 E6.63708
G1 X-18.736 Y0.986 E6.65174
G1 X-18.798 Y0.278 E6.67242
G1 X-18.817 Y-.444 E6.69344
G1 X-18.791 Y-1.159 E6.71426
G1 X-18.742 Y-1.659 E6.72889
G1 X-18.633 Y-2.348 E6.74919
G1 X-18.476 Y-3.055 E6.77026
G1 X-18.275 Y-3.75 E6.79132
G1 X-18.106 Y-4.222 E6.80591
G1 X-17.831 Y-4.864 E6.82624
G1 X-17.506 Y-5.512 E6.84733
G1 X-17.149 Y-6.126 E6.868
G1 X-16.869 Y-6.546 E6.88269
G1 X-16.444 Y-7.107 E6.90318
G1 X-15.974 Y-7.654 E6.92416
G1 X-15.478 Y-8.164 E6.94487
G1 X-15.106 Y-8.502 E6.9595
G1 X-14.55 Y-8.948 E6.98024
G1 X-13.95 Y-9.371 E7.0016
G1 X-13.328 Y-9.753 E7.02285
G1 X-12.885 Y-9.988 E7.03744
G1 X-12.258 Y-10.274 E7.0575
G1 X-11.579 Y-10.536 E7.07868
G1 X-10.903 Y-10.75 E7.09931
G1 X-10.42 Y-10.871 E7.1138
G1 X-9.715 Y-11.002 E7.13467
G1 X-8.992 Y-11.09 E7.15587
G1 X-8.282 Y-11.132 E7.17657
G1 X-7.783 Y-11.131 E7.19109
G1 X-7.089 Y-11.088 E7.21133
G1 X-6.366 Y-10.999 E7.23253
G1 X-5.655 Y-10.865 E7.25358
G1 X-5.173 Y-10.743 E7.26805
G1 X-4.509 Y-10.532 E7.28833
G1 X-3.828 Y-10.269 E7.30957
G1 X-3.062 Y-9.906 E7.33424
G1 X-2.425 Y-9.545 E7.35555
G1 X-1.72 Y-9.074 E7.38023
G1 X-1.138 Y-8.62 E7.40171
G1 X-.614 Y-8.158 E7.42204
G1 X-0.052 Y-7.598 E7.44513
G1 X-0.01 Y-7.555 E7.44688
G1 X3.994 Y-3.482 E7.6131
G0 F6514.3 X3.851 Y-3.128
G1 F1200 X11.358 Y-3.298 E7.83163
G1 X12.032 Y-3.271 E7.85126
G1 X12.473 Y-3.226 E7.86416
G1 X13.123 Y-3.119 E7.88333
G1 X14.037 Y-2.825 E7.91127
G1 X14.441 Y-2.654 E7.92404
G1 X15.03 Y-2.361 E7.94318
G1 X15.779 Y-1.842 E7.9697
G1 X16.117 Y-1.563 E7.98246
G1 X16.599 Y-1.114 E8.00163
G1 X17.189 Y-.371 E8.02924
G1 X17.433 Y-0.002 E8.04212
G1 X17.762 Y0.568 E8.06127
G1 X18.105 Y1.435 E8.0884
G1 X18.231 Y1.856 E8.10119
G1 X18.381 Y2.497 E8.12035
G1 X18.459 Y3.436 E8.14777
G1 X18.457 Y3.876 E8.16058
G1 X18.414 Y4.533 E8.17974
G1 X18.217 Y5.447 E8.20695
G1 X18.088 Y5.866 E8.21971
G1 X17.856 Y6.483 E8.23889
G1 X17.402 Y7.302 E8.26615
G1 X17.156 Y7.667 E8.27896
G1 X16.903 Y7.997 E8.29106
G1 X17.01 Y8.118 E8.29576
G1 X17.519 Y8.894 E8.32277
G1 X17.73 Y9.284 E8.33567
G1 X18.008 Y9.881 E8.35484
G1 X18.275 Y10.782 E8.38218
G1 X18.363 Y11.214 E8.39502
G1 X18.455 Y11.866 E8.41418
G1 X18.448 Y12.801 E8.44139
G1 X18.407 Y13.24 E8.45422
G1 X18.307 Y13.891 E8.47339
G1 X18.02 Y14.807 E8.50133
G1 X17.854 Y15.209 E8.51398
G1 X17.567 Y15.801 E8.53313
G1 X17.056 Y16.552 E8.55957
G1 X16.775 Y16.899 E8.57256
G1 X16.33 Y17.385 E8.59174
G1 X15.582 Y17.989 E8.61972
G1 X15.217 Y18.234 E8.63251
G1 X14.649 Y18.567 E8.65167
G1 X13.79 Y18.915 E8.67864
G1 X13.371 Y19.044 E8.6914
G1 X12.731 Y19.199 E8.71057
G1 X11.781 Y19.284 E8.73833
G1 X10.878 Y19.285 E8.76461
G1 X10.75 Y19.284 E8.76833
G1 X3.85 Y19.129 E8.96919
G1 X-.644 Y23.702 E9.15578
G1 X-.976 Y24.012 E9.169
G1 X-1.533 Y24.491 E9.19038
G1 X-2.061 Y24.892 E9.20968
G1 X-2.478 Y25.17 E9.22426
G1 X-3.055 Y25.505 E9.24368
G1 X-3.703 Y25.83 E9.26478
G1 X-4.299 Y26.086 E9.28366
G1 X-4.769 Y26.255 E9.29819
G1 X-5.423 Y26.445 E9.31801
G1 X-6.135 Y26.604 E9.33924
G1 X-6.797 Y26.709 E9.35875
G1 X-7.295 Y26.757 E9.37331
G1 X-7.95 Y26.78 E9.39238
G1 X-8.673 Y26.762 E9.41343
G1 X-9.335 Y26.705 E9.43277
G1 X-9.833 Y26.631 E9.44742
G1 X-10.489 Y26.492 E9.46694
G1 X-11.187 Y26.298 E9.48802
G1 X-11.812 Y26.082 E9.50726
G1 X-12.275 Y25.89 E9.52185
G1 X-12.88 Y25.594 E9.54145
G1 X-13.509 Y25.236 E9.56252
G1 X-14.163 Y24.798 E9.58542
G1 X-14.745 Y24.344 E9.6069
G1 X-15.337 Y23.808 E9.63015
G1 X-15.835 Y23.285 E9.65116
G1 X-16.251 Y22.792 E9.66994
G1 X-16.553 Y22.388 E9.68462
G1 X-16.928 Y21.815 E9.70454
G1 X-17.285 Y21.185 E9.72562
G1 X-17.572 Y20.597 E9.74466
G1 X-17.765 Y20.134 E9.75926
G1 X-17.988 Y19.49 E9.77909
G1 X-18.18 Y18.794 E9.8001
G1 X-18.315 Y18.157 E9.81905
G1 X-18.39 Y17.658 E9.83374
G1 X-18.448 Y16.995 E9.85311
G1 X-18.467 Y16.273 E9.87413
G1 X-18.443 Y15.601 E9.8937
G1 X-18.394 Y15.101 E9.90832
G1 X-18.291 Y14.454 E9.92739
G1 X-18.134 Y13.747 E9.94846
G1 X-17.945 Y13.094 E9.96825
G1 X-17.776 Y12.622 E9.98284
G1 X-17.517 Y12.016 E10.00202
G1 X-17.192 Y11.369 E10.02309
G1 X-16.858 Y10.795 E10.04241
G1 X-16.578 Y10.375 E10.0571
G1 X-16.179 Y9.849 E10.07632
G1 X-15.709 Y9.302 E10.09731
G1 X-15.248 Y8.827 E10.11657
G1 X-14.876 Y8.488 E10.13122
G1 X-14.348 Y8.064 E10.15093
G1 X-14.257 Y8 E10.15416
G1 X-14.746 Y7.618 E10.17222
G1 X-15.337 Y7.082 E10.19544
G1 X-15.835 Y6.559 E10.21646
G1 X-16.251 Y6.066 E10.23523
G1 X-16.553 Y5.662 E10.24991
G1 X-16.928 Y5.089 E10.26984
G1 X-17.285 Y4.459 E10.29091
G1 X-17.574 Y3.867 E10.31009
G1 X-17.767 Y3.403 E10.32471
G1 X-17.988 Y2.763 E10.34442
G1 X-18.18 Y2.067 E10.36543
G1 X-18.315 Y1.432 E10.38432
G1 X-18.39 Y0.934 E10.39898
G1 X-18.448 Y0.269 E10.4184
G1 X-18.467 Y-.453 E10.43942
G1 X-18.443 Y-1.125 E10.45899
G1 X-18.394 Y-1.625 E10.47361
G1 X-18.291 Y-2.272 E10.49268
G1 X-18.134 Y-2.979 E10.51376
G1 X-17.945 Y-3.632 E10.53354
G1 X-17.776 Y-4.104 E10.54813
G1 X-17.518 Y-4.707 E10.56722
G1 X-17.193 Y-5.355 E10.58832
G1 X-16.858 Y-5.932 E10.60773
G1 X-16.578 Y-6.352 E10.62243
G1 X-16.179 Y-6.878 E10.64164
G1 X-15.709 Y-7.425 E10.66263
G1 X-15.242 Y-7.905 E10.68212
G1 X-14.87 Y-8.243 E10.69674
G1 X-14.348 Y-8.662 E10.71622
G1 X-13.748 Y-9.085 E10.73759
G1 X-13.164 Y-9.443 E10.75752
G1 X-12.721 Y-9.678 E10.77212
G1 X-12.132 Y-9.947 E10.79096
G1 X-11.453 Y-10.209 E10.81214
G1 X-10.818 Y-10.41 E10.83153
G1 X-10.335 Y-10.531 E10.84602
G1 X-9.672 Y-10.654 E10.86564
G1 X-8.949 Y-10.742 E10.88684
G1 X-8.283 Y-10.782 E10.90626
G1 X-7.784 Y-10.781 E10.92078
G1 X-7.132 Y-10.74 E10.93979
G1 X-6.409 Y-10.651 E10.96099
G1 X-5.741 Y-10.526 E10.98077
G1 X-5.259 Y-10.404 E10.99524
G1 X-4.636 Y-10.206 E11.01426
G1 X-3.955 Y-9.943 E11.03551
G1 X-3.234 Y-9.602 E11.05872
G1 X-2.597 Y-9.241 E11.08003
G1 X-1.935 Y-8.798 E11.10321
G1 X-1.353 Y-8.344 E11.12469
G1 X-.861 Y-7.91 E11.14379
G1 X-.299 Y-7.35 E11.16688
G1 X-.259 Y-7.31 E11.16852
G1 X3.851 Y-3.128 E11.33917
G0 F6514.3 X3.708 Y-2.775
G1 F1200 X11.366 Y-2.948 E11.56209
G1 X11.996 Y-2.923 E11.58044
G1 X12.437 Y-2.878 E11.59334
G1 X13.065 Y-2.774 E11.61187
G1 X13.9 Y-2.503 E11.63741
G1 X14.304 Y-2.332 E11.65018
G1 X14.874 Y-2.047 E11.66873
G1 X15.557 Y-1.572 E11.69294
G1 X15.895 Y-1.293 E11.7057
G1 X16.359 Y-.857 E11.72422
G1 X16.897 Y-.178 E11.74944
G1 X17.141 Y0.191 E11.76231
G1 X17.458 Y0.743 E11.78084
G1 X17.77 Y1.535 E11.80561
G1 X17.896 Y1.956 E11.8184
G1 X18.04 Y2.576 E11.83692
G1 X18.109 Y3.434 E11.86197
G1 X18.107 Y3.874 E11.87478
G1 X18.064 Y4.509 E11.8933
G1 X17.882 Y5.344 E11.91817
G1 X17.753 Y5.763 E11.93093
G1 X17.528 Y6.359 E11.94947
G1 X17.111 Y7.106 E11.97437
G1 X16.865 Y7.471 E11.98718
G1 X16.477 Y7.976 E12.00571
G1 X16.443 Y8.008 E12.00707
G1 X16.748 Y8.351 E12.02043
G1 X17.212 Y9.06 E12.04509
G1 X17.423 Y9.45 E12.05799
G1 X17.69 Y10.028 E12.07652
G1 X17.932 Y10.852 E12.10152
G1 X18.02 Y11.284 E12.11435
G1 X18.108 Y11.915 E12.13289
G1 X18.1 Y12.769 E12.15774
