;FLAVOR:Marlin
;TIME:1553
;Filament used: 0.559479m
;Layer height: 0.1
;MINX:-24.625
;MINY:-9.375
;MINZ:0.2
;MAXX:24.625
;MAXY:9.375
;MAXZ:15
;Generated with Cura_SteamEngine 4.4.1
M82 ;absolute extrusion mode
; Vertex Delta Start Gcode
M0 Is my nozzle clean?
M400
G28 ; Home extruder
M106 S128 ; Start fan
M104 T0 R130 ; Set cold nozzle
M109 T0 R130 ; Wait for cold nozzle
M117 Leveling bed...
G29 ; Level Bed
G1 X0 Y100 Z1 F2000
G92 Z0.9 ; Set Z position (SET Z OFFSET HERE -> 1 - OFFSET)
M107 ; Stop fan
G90 ; Absolute positioning
M82 ; Extruder in absolute mode
M104 T0 S210
G92 E0 ; Reset extruder position
M109 T0 S210
M117 Priming nozzle...
M83
; G1 E20 F100 ; purge/prime nozzle
M82
G92 E0 ; Reset extruder position
G4 S3 ; Wait 3 seconds
G1 Z5 F2000
M117 Vertex Delta printing
G92 E0
G92 E0
G1 F1500 E-3
;LAYER_COUNT:149
;LAYER:0
M107
G1 F600 Z0.7
G0 F11400 X1.529 Y-5.875 Z0.7
;TYPE:SKIRT
G1 F600 Z0.2
G1 F1500 E0
G1 F1200 X18.5 Y-5.875 E0.4939
G1 X19.199 Y-5.835 E0.51428
G1 X19.888 Y-5.716 E0.53463
G1 X20.559 Y-5.518 E0.55499
G1 X21.204 Y-5.246 E0.57536
G1 X21.813 Y-4.902 E0.59571
G1 X22.379 Y-4.49 E0.61609
G1 X22.894 Y-4.017 E0.63644
G1 X23.352 Y-3.488 E0.6568
G1 X23.747 Y-2.91 E0.67717
G1 X24.073 Y-2.291 E0.69753
G1 X24.327 Y-1.639 E0.7179
G1 X24.504 Y-.962 E0.73826
G1 X24.603 Y-.269 E0.75864
G1 X24.625 Y0.25 E0.77375
G1 X24.625 Y3.229 E0.86045
G1 X24.585 Y3.928 E0.88083
G1 X24.466 Y4.617 E0.90118
G1 X24.268 Y5.288 E0.92154
G1 X23.996 Y5.933 E0.94191
G1 X23.652 Y6.542 E0.96226
G1 X23.24 Y7.108 E0.98264
G1 X22.767 Y7.623 E1.00299
G1 X22.238 Y8.081 E1.02335
G1 X21.66 Y8.476 E1.04373
G1 X21.041 Y8.802 E1.06409
G1 X20.389 Y9.056 E1.08445
G1 X19.712 Y9.233 E1.10481
G1 X19.019 Y9.332 E1.12519
G1 X18.503 Y9.354 E1.14022
G1 X-18.497 Y9.375 E2.21701
G1 X-19.195 Y9.335 E2.23736
G1 X-19.885 Y9.216 E2.25774
G1 X-20.556 Y9.02 E2.27808
G1 X-21.201 Y8.747 E2.29847
G1 X-21.81 Y8.404 E2.31881
G1 X-22.376 Y7.992 E2.33918
G1 X-22.892 Y7.519 E2.35955
G1 X-23.35 Y6.991 E2.37989
G1 X-23.745 Y6.413 E2.40027
G1 X-24.072 Y5.794 E2.42064
G1 X-24.325 Y5.142 E2.441
G1 X-24.503 Y4.465 E2.46137
G1 X-24.603 Y3.773 E2.48172
G1 X-24.625 Y3.25 E2.49695
G1 X-24.625 Y0.271 E2.58365
G1 X-24.585 Y-.428 E2.60402
G1 X-24.466 Y-1.117 E2.62437
G1 X-24.268 Y-1.788 E2.64473
G1 X-23.996 Y-2.433 E2.6651
G1 X-23.652 Y-3.042 E2.68546
G1 X-23.24 Y-3.608 E2.70583
G1 X-22.767 Y-4.123 E2.72618
G1 X-22.238 Y-4.581 E2.74655
G1 X-21.66 Y-4.976 E2.76692
G1 X-21.041 Y-5.302 E2.78728
G1 X-20.389 Y-5.556 E2.80764
G1 X-19.712 Y-5.733 E2.82801
G1 X-18.703 Y-5.851 E2.85757
G1 X-18.07 Y-5.872 E2.87601
G1 X-17.868 Y-5.875 E2.88189
G1 X-14.529 Y-5.875 E2.97906
G1 X-14.496 Y-5.954 E2.98155
G1 X-14.152 Y-6.563 E3.00191
G1 X-13.74 Y-7.129 E3.02228
G1 X-13.267 Y-7.644 E3.04263
G1 X-12.738 Y-8.102 E3.06299
G1 X-12.16 Y-8.497 E3.08337
G1 X-11.541 Y-8.823 E3.10373
G1 X-10.889 Y-9.077 E3.12409
G1 X-10.212 Y-9.254 E3.14446
G1 X-9.519 Y-9.353 E3.16483
G1 X-9 Y-9.375 E3.17995
G1 X-4 Y-9.375 E3.32546
G1 X-3.301 Y-9.335 E3.34584
G1 X-2.612 Y-9.216 E3.36619
G1 X-1.941 Y-9.018 E3.38655
G1 X-1.296 Y-8.746 E3.40692
G1 X-.687 Y-8.402 E3.42727
G1 X-.121 Y-7.99 E3.44765
G1 X0.394 Y-7.517 E3.468
G1 X0.852 Y-6.988 E3.48836
G1 X1.247 Y-6.41 E3.50873
G1 X1.529 Y-5.875 E3.52634
G0 F11400 X1.304 Y-5.525
G1 F1200 X18.5 Y-5.525 E4.02678
G1 X19.178 Y-5.485 E4.04655
G1 X19.847 Y-5.366 E4.06632
G1 X20.497 Y-5.169 E4.08609
G1 X21.12 Y-4.897 E4.10588
G1 X21.706 Y-4.553 E4.12565
G1 X22.248 Y-4.143 E4.14543
G1 X22.738 Y-3.673 E4.16519
G1 X23.169 Y-3.148 E4.18496
G1 X23.536 Y-2.576 E4.20474
G1 X23.833 Y-1.965 E4.22451
G1 X24.057 Y-1.323 E4.24429
G1 X24.203 Y-.66 E4.26405
G1 X24.275 Y0.25 E4.29062
G1 X24.275 Y3.229 E4.37731
G1 X24.235 Y3.907 E4.39708
G1 X24.116 Y4.576 E4.41686
G1 X23.919 Y5.226 E4.43662
G1 X23.647 Y5.849 E4.45641
G1 X23.303 Y6.435 E4.47618
G1 X22.893 Y6.977 E4.49596
G1 X22.423 Y7.467 E4.51572
G1 X21.898 Y7.898 E4.53549
G1 X21.326 Y8.265 E4.55527
G1 X20.715 Y8.562 E4.57504
G1 X20.073 Y8.786 E4.59483
G1 X19.41 Y8.932 E4.61458
G1 X18.503 Y9.004 E4.64106
G1 X-18.497 Y9.025 E5.71786
G1 X-19.175 Y8.985 E5.73763
G1 X-19.844 Y8.866 E5.7574
G1 X-20.494 Y8.67 E5.77716
G1 X-21.117 Y8.398 E5.79694
G1 X-21.703 Y8.055 E5.8167
G1 X-22.246 Y7.646 E5.83649
G1 X-22.736 Y7.175 E5.85627
G1 X-23.168 Y6.651 E5.87603
G1 X-23.535 Y6.079 E5.89581
G1 X-23.832 Y5.468 E5.91558
G1 X-24.056 Y4.827 E5.93534
G1 X-24.202 Y4.163 E5.95513
G1 X-24.275 Y3.25 E5.98178
G1 X-24.275 Y0.271 E6.06848
G1 X-24.235 Y-.407 E6.08825
G1 X-24.116 Y-1.076 E6.10802
G1 X-23.919 Y-1.726 E6.12779
G1 X-23.647 Y-2.349 E6.14757
G1 X-23.303 Y-2.935 E6.16735
G1 X-22.893 Y-3.477 E6.18712
G1 X-22.423 Y-3.967 E6.20688
G1 X-21.898 Y-4.398 E6.22665
G1 X-21.326 Y-4.765 E6.24643
G1 X-20.715 Y-5.062 E6.2662
G1 X-20.073 Y-5.286 E6.28599
G1 X-19.41 Y-5.432 E6.30575
G1 X-18.691 Y-5.501 E6.32677
G1 X-18.058 Y-5.522 E6.3452
G1 X-17.868 Y-5.525 E6.35073
G1 X-14.297 Y-5.525 E6.45466
G1 X-14.147 Y-5.87 E6.46561
G1 X-13.803 Y-6.456 E6.48538
G1 X-13.393 Y-6.998 E6.50516
G1 X-12.923 Y-7.488 E6.52492
G1 X-12.398 Y-7.919 E6.54469
G1 X-11.826 Y-8.286 E6.56447
G1 X-11.215 Y-8.583 E6.58424
G1 X-10.573 Y-8.807 E6.60402
G1 X-9.91 Y-8.953 E6.62378
G1 X-9 Y-9.025 E6.65035
G1 X-4 Y-9.025 E6.79586
G1 X-3.322 Y-8.985 E6.81563
G1 X-2.653 Y-8.866 E6.8354
G1 X-2.003 Y-8.669 E6.85517
G1 X-1.38 Y-8.397 E6.87495
G1 X-.794 Y-8.053 E6.89473
G1 X-.252 Y-7.643 E6.91451
G1 X0.238 Y-7.173 E6.93427
G1 X0.669 Y-6.648 E6.95403
G1 X1.036 Y-6.076 E6.97381
G1 X1.304 Y-5.525 E6.99164
G0 F11400 X0.818 Y-5.744
G1 F1200 X1.069 Y-5.175 E7.00974
G1 X18.5 Y-5.175 E7.51703
G1 X19.157 Y-5.135 E7.53619
G1 X19.805 Y-5.016 E7.55536
G1 X20.433 Y-4.819 E7.57452
G1 X21.033 Y-4.547 E7.59369
G1 X21.596 Y-4.205 E7.61286
G1 X22.113 Y-3.797 E7.63203
G1 X22.576 Y-3.33 E7.65116
G1 X22.98 Y-2.809 E7.67035
G1 X23.318 Y-2.244 E7.68951
G1 X23.584 Y-1.642 E7.70867
G1 X23.776 Y-1.012 E7.72783
G1 X23.89 Y-.364 E7.74698
G1 X23.925 Y0.25 E7.76488
G1 X23.925 Y3.229 E7.85158
G1 X23.885 Y3.886 E7.87073
G1 X23.766 Y4.534 E7.88991
G1 X23.569 Y5.162 E7.90906
G1 X23.297 Y5.762 E7.92823
G1 X22.955 Y6.325 E7.9474
G1 X22.547 Y6.842 E7.96657
G1 X22.08 Y7.305 E7.98571
G1 X21.559 Y7.709 E8.00489
G1 X20.994 Y8.047 E8.02406
G1 X20.392 Y8.313 E8.04321
G1 X19.762 Y8.505 E8.06238
G1 X19.114 Y8.619 E8.08152
G1 X18.503 Y8.654 E8.09934
G1 X-18.497 Y8.675 E9.17613
G1 X-19.154 Y8.635 E9.19529
G1 X-19.802 Y8.516 E9.21446
G1 X-20.43 Y8.32 E9.23361
G1 X-21.03 Y8.049 E9.25277
G1 X-21.593 Y7.707 E9.27194
G1 X-22.11 Y7.299 E9.29111
G1 X-22.574 Y6.832 E9.31026
G1 X-22.978 Y6.312 E9.32943
G1 X-23.316 Y5.747 E9.34859
G1 X-23.583 Y5.145 E9.36776
G1 X-23.775 Y4.515 E9.38692
G1 X-23.89 Y3.867 E9.40608
G1 X-23.925 Y3.25 E9.42406
G1 X-23.925 Y0.271 E9.51076
G1 X-23.885 Y-.386 E9.52991
G1 X-23.766 Y-1.034 E9.54909
G1 X-23.569 Y-1.662 E9.56824
G1 X-23.297 Y-2.262 E9.58741
G1 X-22.955 Y-2.825 E9.60658
G1 X-22.547 Y-3.342 E9.62575
G1 X-22.08 Y-3.805 E9.64489
G1 X-21.559 Y-4.209 E9.66408
G1 X-20.994 Y-4.547 E9.68324
G1 X-20.392 Y-4.813 E9.70239
G1 X-19.762 Y-5.005 E9.72156
G1 X-19.114 Y-5.119 E9.74071
G1 X-18.68 Y-5.151 E9.75337
G1 X-18.047 Y-5.172 E9.7718
G1 X-17.868 Y-5.175 E9.77701
G1 X-14.071 Y-5.175 E9.88752
G1 X-14.069 Y-5.183 E9.88776
G1 X-13.797 Y-5.783 E9.90693
G1 X-13.455 Y-6.346 E9.9261
G1 X-13.047 Y-6.863 E9.94527
G1 X-12.58 Y-7.326 E9.9644
G1 X-12.059 Y-7.73 E9.98359
G1 X-11.494 Y-8.068 E10.00275
G1 X-10.892 Y-8.334 E10.02191
G1 X-10.262 Y-8.526 E10.04107
G1 X-9.614 Y-8.64 E10.06022
G1 X-9 Y-8.675 E10.07812
G1 X-4 Y-8.675 E10.22363
G1 X-3.343 Y-8.635 E10.24279
G1 X-2.695 Y-8.516 E10.26196
G1 X-2.067 Y-8.319 E10.28112
G1 X-1.467 Y-8.047 E10.30029
G1 X-.904 Y-7.705 E10.31946
G1 X-.387 Y-7.297 E10.33863
G1 X0.076 Y-6.83 E10.35777
G1 X0.48 Y-6.309 E10.37695
G1 X0.818 Y-5.744 E10.39611
G0 F11400 X0.59 Y-5.415
G1 F1200 X0.824 Y-4.825 E10.41458
G1 X18.5 Y-4.825 E10.929
G1 X19.136 Y-4.785 E10.94755
G1 X19.761 Y-4.666 E10.96606
G1 X20.367 Y-4.469 E10.98461
G1 X20.943 Y-4.198 E11.00313
G1 X21.481 Y-3.857 E11.02167
G1 X21.972 Y-3.451 E11.04021
G1 X22.408 Y-2.987 E11.05874
G1 X22.783 Y-2.472 E11.07728
G1 X23.09 Y-1.915 E11.09579
G1 X23.325 Y-1.323 E11.11433
G1 X23.484 Y-.706 E11.13287
G1 X23.565 Y-0.074 E11.15142
G1 X23.575 Y0.25 E11.16085
G1 X23.575 Y3.229 E11.24755
G1 X23.535 Y3.865 E11.26609
G1 X23.416 Y4.49 E11.28461
G1 X23.219 Y5.096 E11.30315
G1 X22.948 Y5.672 E11.32168
G1 X22.607 Y6.21 E11.34022
G1 X22.201 Y6.701 E11.35876
G1 X21.737 Y7.137 E11.37729
G1 X21.222 Y7.512 E11.39583
G1 X20.665 Y7.819 E11.41434
G1 X20.073 Y8.054 E11.43287
G1 X19.456 Y8.213 E11.45142
G1 X18.824 Y8.294 E11.46996
G1 X18.503 Y8.304 E11.47931
G1 X-18.497 Y8.325 E12.5561
G1 X-19.133 Y8.285 E12.57465
G1 X-19.758 Y8.167 E12.59316
G1 X-20.364 Y7.97 E12.6117
G1 X-20.941 Y7.7 E12.63024
G1 X-21.479 Y7.359 E12.64878
G1 X-21.97 Y6.953 E12.66732
G1 X-22.406 Y6.49 E12.68583
G1 X-22.781 Y5.975 E12.70437
G1 X-23.089 Y5.417 E12.72292
G1 X-23.324 Y4.825 E12.74146
G1 X-23.484 Y4.209 E12.75998
G1 X-23.564 Y3.577 E12.77852
G1 X-23.575 Y3.25 E12.78804
G1 X-23.575 Y0.271 E12.87474
G1 X-23.535 Y-.365 E12.89328
G1 X-23.416 Y-.99 E12.9118
G1 X-23.219 Y-1.596 E12.93034
G1 X-22.948 Y-2.172 E12.94887
G1 X-22.607 Y-2.71 E12.96741
G1 X-22.201 Y-3.201 E12.98595
G1 X-21.737 Y-3.637 E13.00448
G1 X-21.222 Y-4.012 E13.02302
G1 X-20.665 Y-4.319 E13.04153
G1 X-20.073 Y-4.554 E13.06006
G1 X-19.456 Y-4.713 E13.07861
G1 X-18.668 Y-4.801 E13.10168
G1 X-18.035 Y-4.822 E13.12011
G1 X-17.868 Y-4.825 E13.12498
G1 X-13.814 Y-4.825 E13.24296
G1 X-13.719 Y-5.117 E13.25189
G1 X-13.448 Y-5.693 E13.27042
G1 X-13.107 Y-6.231 E13.28896
G1 X-12.701 Y-6.722 E13.3075
G1 X-12.237 Y-7.158 E13.32603
G1 X-11.722 Y-7.533 E13.34457
G1 X-11.165 Y-7.84 E13.36308
G1 X-10.573 Y-8.075 E13.38161
G1 X-9.956 Y-8.234 E13.40016
G1 X-9.324 Y-8.315 E13.4187
G1 X-9 Y-8.325 E13.42813
G1 X-4 Y-8.325 E13.57365
G1 X-3.364 Y-8.285 E13.59219
G1 X-2.739 Y-8.166 E13.61071
G1 X-2.133 Y-7.969 E13.62925
G1 X-1.557 Y-7.698 E13.64778
G1 X-1.019 Y-7.357 E13.66632
G1 X-.528 Y-6.951 E13.68486
G1 X-0.092 Y-6.487 E13.70339
G1 X0.283 Y-5.972 E13.72193
G1 X0.59 Y-5.415 E13.74044
G0 F11400 X0.353 Y-5.088
G1 F1200 X0.555 Y-4.507 E13.75834
G1 X0.562 Y-4.475 E13.75929
G1 X18.5 Y-4.475 E14.28134
G1 X19.113 Y-4.435 E14.29921
G1 X19.716 Y-4.316 E14.3171
G1 X20.298 Y-4.119 E14.33498
G1 X20.85 Y-3.849 E14.35287
G1 X21.362 Y-3.509 E14.37075
G1 X21.826 Y-3.106 E14.38864
G1 X22.233 Y-2.646 E14.40651
G1 X22.578 Y-2.137 E14.42441
G1 X22.853 Y-1.588 E14.44228
G1 X23.055 Y-1.007 E14.46018
G1 X23.179 Y-.406 E14.47804
G1 X23.225 Y0.25 E14.49718
G1 X23.225 Y3.229 E14.58387
G1 X23.185 Y3.842 E14.60175
G1 X23.066 Y4.445 E14.61964
G1 X22.869 Y5.027 E14.63752
G1 X22.599 Y5.579 E14.6554
G1 X22.259 Y6.091 E14.67329
G1 X21.856 Y6.555 E14.69118
G1 X21.396 Y6.962 E14.70905
G1 X20.887 Y7.307 E14.72695
G1 X20.338 Y7.582 E14.74482
G1 X19.757 Y7.784 E14.76272
G1 X19.156 Y7.908 E14.78058
G1 X18.503 Y7.954 E14.79963
G1 X-18.497 Y7.975 E15.87643
G1 X-19.111 Y7.935 E15.89433
G1 X-19.713 Y7.817 E15.91219
G1 X-20.296 Y7.62 E15.9301
G1 X-20.848 Y7.35 E15.94798
G1 X-21.36 Y7.011 E15.96585
G1 X-21.824 Y6.608 E15.98374
G1 X-22.232 Y6.148 E16.00163
G1 X-22.576 Y5.64 E16.01948
G1 X-22.852 Y5.09 E16.03739
G1 X-23.054 Y4.51 E16.05527
G1 X-23.179 Y3.908 E16.07316
G1 X-23.225 Y3.25 E16.09236
G1 X-23.225 Y0.271 E16.17905
G1 X-23.185 Y-.342 E16.19693
G1 X-23.066 Y-.945 E16.21482
G1 X-22.869 Y-1.527 E16.2327
G1 X-22.599 Y-2.079 E16.25058
G1 X-22.259 Y-2.591 E16.26847
G1 X-21.856 Y-3.055 E16.28636
G1 X-21.396 Y-3.462 E16.30423
G1 X-20.887 Y-3.807 E16.32213
G1 X-20.338 Y-4.082 E16.34
G1 X-19.757 Y-4.284 E16.3579
G1 X-19.156 Y-4.408 E16.37576
G1 X-18.657 Y-4.451 E16.39033
G1 X-18.024 Y-4.472 E16.40876
G1 X-17.868 Y-4.475 E16.41331
G1 X-13.563 Y-4.475 E16.53859
G1 X-13.369 Y-5.048 E16.5562
G1 X-13.099 Y-5.6 E16.57408
G1 X-12.759 Y-6.112 E16.59197
G1 X-12.356 Y-6.576 E16.60985
G1 X-11.896 Y-6.983 E16.62773
G1 X-11.387 Y-7.328 E16.64562
G1 X-10.838 Y-7.603 E16.66349
G1 X-10.257 Y-7.805 E16.6814
G1 X-9.656 Y-7.929 E16.69925
G1 X-9 Y-7.975 E16.71839
G1 X-4 Y-7.975 E16.86391
G1 X-3.387 Y-7.935 E16.88178
G1 X-2.784 Y-7.816 E16.89967
G1 X-2.202 Y-7.619 E16.91755
G1 X-1.65 Y-7.349 E16.93544
G1 X-1.138 Y-7.009 E16.95332
G1 X-.674 Y-6.606 E16.97121
G1 X-.267 Y-6.146 E16.98908
G1 X0.078 Y-5.637 E17.00698
G1 X0.353 Y-5.088 E17.02485
G0 F11400 X-.137 Y-5.304
G1 F1200 X0.104 Y-4.765 E17.04203
G1 X0.271 Y-4.197 E17.05926
G1 X0.282 Y-4.125 E17.06138
G1 X18.5 Y-4.125 E17.59157
G1 X19.09 Y-4.085 E17.60878
G1 X19.669 Y-3.966 E17.62599
G1 X20.227 Y-3.77 E17.6432
G1 X20.753 Y-3.5 E17.6604
G1 X21.238 Y-3.162 E17.67761
G1 X21.673 Y-2.762 E17.69481
G1 X22.05 Y-2.306 E17.71203
G1 X22.363 Y-1.804 E17.72924
G1 X22.604 Y-1.265 E17.74643
G1 X22.771 Y-.697 E17.76366
G1 X22.86 Y-.113 E17.78085
G1 X22.875 Y0.25 E17.79142
G1 X22.875 Y3.229 E17.87812
G1 X22.835 Y3.819 E17.89533
G1 X22.716 Y4.398 E17.91253
G1 X22.52 Y4.956 E17.92974
G1 X22.25 Y5.482 E17.94695
G1 X21.912 Y5.967 E17.96415
G1 X21.512 Y6.402 E17.98135
G1 X21.056 Y6.779 E17.99857
G1 X20.554 Y7.092 E18.01579
G1 X20.015 Y7.333 E18.03297
G1 X19.447 Y7.5 E18.0502
G1 X18.863 Y7.589 E18.06739
G1 X18.502 Y7.604 E18.07791
G1 X-18.498 Y7.625 E19.1547
G1 X-19.087 Y7.585 E19.17189
G1 X-19.667 Y7.467 E19.18911
G1 X-20.225 Y7.271 E19.20632
G1 X-20.751 Y7.001 E19.22353
G1 X-21.236 Y6.664 E19.24072
G1 X-21.672 Y6.264 E19.25794
G1 X-22.049 Y5.808 E19.27516
G1 X-22.362 Y5.307 E19.29235
G1 X-22.604 Y4.767 E19.30957
G1 X-22.771 Y4.2 E19.32677
G1 X-22.86 Y3.615 E19.34399
G1 X-22.875 Y3.25 E19.35462
G1 X-22.875 Y0.271 E19.44132
G1 X-22.835 Y-.319 E19.45853
G1 X-22.716 Y-.898 E19.47573
G1 X-22.52 Y-1.456 E19.49294
G1 X-22.25 Y-1.982 E19.51015
G1 X-21.912 Y-2.467 E19.52736
G1 X-21.512 Y-2.902 E19.54455
G1 X-21.056 Y-3.279 E19.56177
G1 X-20.554 Y-3.592 E19.57899
G1 X-20.015 Y-3.833 E19.59617
G1 X-19.447 Y-4 E19.6134
G1 X-18.645 Y-4.102 E19.63693
G1 X-18.012 Y-4.123 E19.65536
G1 X-17.867 Y-4.125 E19.65958
G1 X-13.276 Y-4.126 E19.79319
G1 X-13.216 Y-4.419 E19.8019
G1 X-13.02 Y-4.977 E19.81911
G1 X-12.75 Y-5.503 E19.83632
G1 X-12.412 Y-5.988 E19.85352
G1 X-12.012 Y-6.423 E19.87072
G1 X-11.556 Y-6.8 E19.88794
G1 X-11.054 Y-7.113 E19.90515
G1 X-10.515 Y-7.354 E19.92234
G1 X-9.947 Y-7.521 E19.93957
G1 X-9.363 Y-7.61 E19.95676
G1 X-9 Y-7.625 E19.96733
G1 X-4 Y-7.625 E20.11285
G1 X-3.41 Y-7.585 E20.13006
G1 X-2.831 Y-7.466 E20.14726
G1 X-2.273 Y-7.27 E20.16447
G1 X-1.747 Y-7 E20.18168
G1 X-1.262 Y-6.662 E20.19888
G1 X-.827 Y-6.262 E20.21608
G1 X-.45 Y-5.806 E20.2333
G1 X-.137 Y-5.304 E20.25052
G0 F11400 X-.363 Y-4.974
G1 F1200 X-.157 Y-4.446 E20.26701
G1 X-0.027 Y-3.894 E20.28351
G1 X-0.017 Y-3.775 E20.28699
G1 X18.5 Y-3.775 E20.82588
G1 X19.066 Y-3.735 E20.8424
G1 X19.62 Y-3.616 E20.85889
G1 X20.152 Y-3.42 E20.87539
G1 X20.652 Y-3.152 E20.8919
G1 X21.108 Y-2.815 E20.9084
G1 X21.513 Y-2.418 E20.9249
G1 X21.859 Y-1.968 E20.94142
G1 X22.137 Y-1.474 E20.95792
G1 X22.343 Y-.946 E20.97441
G1 X22.473 Y-.394 E20.99092
G1 X22.525 Y0.25 E21.00972
G1 X22.525 Y3.229 E21.09642
G1 X22.485 Y3.795 E21.11293
G1 X22.366 Y4.349 E21.12942
G1 X22.17 Y4.881 E21.14592
G1 X21.902 Y5.381 E21.16243
G1 X21.565 Y5.837 E21.17893
G1 X21.168 Y6.242 E21.19544
G1 X20.718 Y6.588 E21.21196
G1 X20.224 Y6.866 E21.22845
G1 X19.696 Y7.072 E21.24495
G1 X19.144 Y7.202 E21.26145
G1 X18.502 Y7.254 E21.2802
G1 X-18.498 Y7.275 E22.35699
G1 X-19.063 Y7.235 E22.37348
G1 X-19.618 Y7.117 E22.38999
G1 X-20.15 Y6.921 E22.40649
G1 X-20.65 Y6.653 E22.423
G1 X-21.107 Y6.317 E22.43951
G1 X-21.512 Y5.92 E22.45601
G1 X-21.857 Y5.47 E22.47252
G1 X-22.136 Y4.976 E22.48903
G1 X-22.343 Y4.448 E22.50553
G1 X-22.473 Y3.896 E22.52204
G1 X-22.525 Y3.25 E22.5409
G1 X-22.525 Y0.271 E22.62759
G1 X-22.485 Y-.295 E22.64411
G1 X-22.366 Y-.849 E22.6606
G1 X-22.17 Y-1.381 E22.6771
G1 X-21.902 Y-1.881 E22.69361
G1 X-21.565 Y-2.337 E22.71011
G1 X-21.168 Y-2.742 E22.72661
G1 X-20.718 Y-3.088 E22.74313
G1 X-20.224 Y-3.366 E22.75963
G1 X-19.696 Y-3.572 E22.77612
G1 X-19.144 Y-3.702 E22.79263
