;FLAVOR:Marlin
;TIME:3980
;Filament used: 1.84927m
;Layer height: 0.1
;MINX:-45.064
;MINY:-76.51
;MINZ:0.2
;MAXX:46.046
;MAXY:76.57
;MAXZ:4.5
;Generated with Cura_SteamEngine 4.4.1
M82 ;absolute extrusion mode
; Vertex Delta Start Gcode
M0 Is my nozzle clean?
M400
G28 ; Home extruder
M106 S128 ; Start fan
M104 T0 R130 ; Set cold nozzle
M109 T0 R130 ; Wait for cold nozzle
M117 Leveling bed...
G29 ; Level Bed
G1 X0 Y100 Z1 F2000
G92 Z0.9 ; Set Z position (SET Z OFFSET HERE -> 1 - OFFSET)
M107 ; Stop fan
G90 ; Absolute positioning
M82 ; Extruder in absolute mode
M104 T0 S210
G92 E0 ; Reset extruder position
M109 T0 S210
M117 Priming nozzle...
M83
; G1 E20 F100 ; purge/prime nozzle
M82
G92 E0 ; Reset extruder position
G4 S3 ; Wait 3 seconds
G1 Z5 F2000
M117 Vertex Delta printing
G92 E0
G92 E0
G1 F1500 E-3
;LAYER_COUNT:44
;LAYER:0
M107
G1 F600 Z0.7
G0 F11400 X-3.031 Y-2.248 Z0.7
;TYPE:SKIRT
G1 F600 Z0.2
G1 F1500 E0
G1 F1200 X-3.474 Y-1.706 E0.02037
G1 X-3.517 Y-1.664 E0.02212
G1 X-3.6 Y-1.3 E0.03299
G1 X-3.832 Y-.64 E0.05335
G1 X-4.084 Y-.111 E0.0704
G1 X-4.204 Y0.113 E0.07779
G1 X-4.569 Y0.71 E0.09816
G1 X-5 Y1.262 E0.11854
G1 X-5.043 Y1.306 E0.12033
G1 X-5.104 Y1.615 E0.1295
G1 X-5.317 Y2.282 E0.14987
G1 X-5.559 Y2.831 E0.16734
G1 X-5.671 Y3.055 E0.17462
G1 X-6.019 Y3.662 E0.19499
G1 X-6.434 Y4.225 E0.21534
G1 X-6.504 Y4.301 E0.21835
G1 X-6.589 Y4.735 E0.23122
G1 X-6.801 Y5.402 E0.25159
G1 X-6.979 Y5.82 E0.26481
G1 X-7.087 Y6.05 E0.2722
G1 X-7.42 Y6.666 E0.29258
G1 X-7.821 Y7.239 E0.31294
G1 X-7.898 Y7.326 E0.31632
G1 X-7.952 Y7.669 E0.32642
G1 X-8.138 Y8.343 E0.34677
G1 X-8.353 Y8.89 E0.36388
G1 X-8.456 Y9.119 E0.37118
G1 X-8.779 Y9.74 E0.39155
G1 X-9.171 Y10.32 E0.41193
G1 X-9.626 Y10.851 E0.43228
G1 X-10.139 Y11.327 E0.45265
G1 X-10.53 Y11.625 E0.46695
G1 X-10.61 Y11.681 E0.46979
G1 X-11.205 Y12.049 E0.49015
G1 X-11.57 Y12.22 E0.50189
G1 X-11.987 Y12.717 E0.52077
G1 X-12.495 Y13.198 E0.54113
G1 X-13.055 Y13.618 E0.5615
G1 X-13.658 Y13.971 E0.58183
G1 X-14.299 Y14.254 E0.60222
G1 X-14.967 Y14.461 E0.62258
G1 X-15.655 Y14.591 E0.64295
G1 X-15.657 Y14.591 E0.64301
G1 X-16.5 Y16.849 E0.71316
G1 X-17.774 Y20.546 E0.82696
G1 X-18.941 Y24.227 E0.93934
G1 X-20.028 Y27.964 E1.0526
G1 X-21.005 Y31.662 E1.16392
G1 X-21.942 Y35.585 E1.2813
G1 X-22.737 Y39.334 E1.39283
G1 X-23.47 Y43.251 E1.5088
G1 X-24.076 Y47.016 E1.61979
G1 X-24.607 Y50.909 E1.73413
G1 X-25.039 Y54.8 E1.84807
G1 X-25.378 Y58.691 E1.96173
G1 X-25.615 Y62.531 E2.0737
G1 X-25.763 Y66.497 E2.1892
G1 X-25.815 Y70.424 E2.3035
G1 X-25.864 Y71.122 E2.32386
G1 X-25.992 Y71.81 E2.34423
G1 X-26.198 Y72.479 E2.3646
G1 X-26.479 Y73.12 E2.38497
G1 X-26.831 Y73.724 E2.40531
G1 X-27.25 Y74.285 E2.42569
G1 X-27.629 Y74.696 E2.44196
G1 X-27.731 Y74.797 E2.44614
G1 X-28.256 Y75.26 E2.46651
G1 X-28.83 Y75.661 E2.48689
G1 X-29.446 Y75.993 E2.50725
G1 X-30.095 Y76.253 E2.5276
G1 X-30.77 Y76.437 E2.54796
G1 X-31.462 Y76.543 E2.56833
G1 X-32.041 Y76.57 E2.5852
G1 X-38.836 Y76.57 E2.78295
G1 X-39.535 Y76.53 E2.80333
G1 X-40.224 Y76.411 E2.82368
G1 X-40.895 Y76.213 E2.84404
G1 X-41.54 Y75.941 E2.86441
G1 X-42.149 Y75.597 E2.88477
G1 X-42.715 Y75.185 E2.90514
G1 X-43.188 Y74.755 E2.92374
G1 X-43.291 Y74.651 E2.928
G1 X-43.754 Y74.127 E2.94835
G1 X-44.154 Y73.553 E2.96872
G1 X-44.487 Y72.937 E2.98909
G1 X-44.747 Y72.287 E3.00947
G1 X-44.931 Y71.612 E3.02983
G1 X-45.037 Y70.921 E3.05017
G1 X-45.064 Y70.266 E3.06925
G1 X-45.017 Y66.434 E3.18078
G1 X-45.013 Y66.294 E3.18486
G1 X-44.865 Y62.075 E3.30772
G1 X-44.858 Y61.925 E3.31209
G1 X-44.606 Y57.708 E3.43503
G1 X-44.595 Y57.557 E3.43944
G1 X-44.24 Y53.354 E3.56219
G1 X-44.226 Y53.205 E3.56655
G1 X-43.767 Y49.005 E3.68951
G1 X-43.749 Y48.857 E3.69385
G1 X-43.189 Y44.678 E3.81655
G1 X-43.167 Y44.529 E3.82094
G1 X-42.504 Y40.36 E3.94379
G1 X-42.478 Y40.211 E3.94819
G1 X-41.712 Y36.059 E4.07106
G1 X-41.683 Y35.911 E4.07545
G1 X-40.815 Y31.779 E4.19833
G1 X-40.782 Y31.632 E4.20272
G1 X-39.813 Y27.524 E4.32555
G1 X-39.777 Y27.378 E4.32993
G1 X-38.66 Y23.114 E4.45821
G1 X-38.619 Y22.964 E4.46273
G1 X-37.498 Y19.089 E4.58013
G1 X-37.456 Y18.951 E4.58433
G1 X-36.188 Y14.924 E4.7072
G1 X-36.141 Y14.781 E4.71158
G1 X-34.773 Y10.783 E4.83455
G1 X-34.723 Y10.641 E4.83893
G1 X-33.26 Y6.686 E4.96166
G1 X-33.206 Y6.546 E4.96602
G1 X-31.645 Y2.623 E5.0889
G1 X-31.588 Y2.485 E5.09324
G1 X-29.932 Y-1.397 E5.21607
G1 X-29.87 Y-1.537 E5.22053
G1 X-28.116 Y-5.38 E5.34347
G1 X-28.053 Y-5.513 E5.34775
G1 X-26.21 Y-9.307 E5.4705
G1 X-26.142 Y-9.443 E5.47493
G1 X-24.204 Y-13.193 E5.59778
G1 X-24.134 Y-13.324 E5.6021
G1 X-22.106 Y-17.025 E5.72492
G1 X-22.032 Y-17.158 E5.72935
G1 X-19.911 Y-20.81 E5.85225
G1 X-19.834 Y-20.938 E5.8566
G1 X-17.626 Y-24.535 E5.97943
G1 X-17.545 Y-24.664 E5.98387
G1 X-15.248 Y-28.206 E6.10672
G1 X-15.166 Y-28.329 E6.11103
G1 X-12.784 Y-31.815 E6.2339
G1 X-12.696 Y-31.94 E6.23835
G1 X-10.229 Y-35.364 E6.36117
G1 X-10.141 Y-35.483 E6.36548
G1 X-7.59 Y-38.848 E6.48837
G1 X-7.497 Y-38.968 E6.49278
G1 X-4.862 Y-42.271 E6.61575
G1 X-4.767 Y-42.387 E6.62011
G1 X-2.057 Y-45.618 E6.74284
G1 X-1.959 Y-45.732 E6.74722
G1 X0.831 Y-48.898 E6.87003
G1 X0.931 Y-49.008 E6.87435
G1 X3.799 Y-52.107 E6.99724
G1 X3.905 Y-52.219 E7.00173
G1 X6.85 Y-55.245 E7.12461
G1 X6.913 Y-55.309 E7.12723
G1 X7.315 Y-55.71 E7.14375
G1 X7.362 Y-55.757 E7.14569
G1 X10.178 Y-58.506 E7.26021
G1 X10.288 Y-58.61 E7.26462
G1 X13.381 Y-61.484 E7.3875
G1 X13.493 Y-61.585 E7.39188
G1 X16.655 Y-64.381 E7.51472
G1 X16.768 Y-64.479 E7.51908
G1 X19.997 Y-67.197 E7.64191
G1 X20.114 Y-67.293 E7.64631
G1 X23.413 Y-69.933 E7.76928
G1 X23.532 Y-70.026 E7.77367
G1 X26.89 Y-72.58 E7.89646
G1 X27.01 Y-72.669 E7.9008
G1 X30.434 Y-75.144 E8.02376
G1 X30.54 Y-75.219 E8.02754
G1 X30.841 Y-75.427 E8.03818
G1 X31.438 Y-75.791 E8.05853
G1 X32.073 Y-76.085 E8.0789
G1 X32.738 Y-76.304 E8.09927
G1 X33.423 Y-76.447 E8.11964
G1 X34.12 Y-76.51 E8.14001
G1 X34.819 Y-76.493 E8.16036
G1 X35.452 Y-76.408 E8.17894
G1 X35.596 Y-76.381 E8.18321
G1 X36.275 Y-76.213 E8.20356
G1 X36.931 Y-75.969 E8.22393
G1 X37.554 Y-75.651 E8.24429
G1 X38.137 Y-75.264 E8.26465
G1 X38.673 Y-74.814 E8.28502
G1 X39.153 Y-74.305 E8.30538
G1 X39.484 Y-73.875 E8.32117
G1 X44.654 Y-66.493 E8.58346
G1 X45.022 Y-65.898 E8.60382
G1 X45.32 Y-65.264 E8.62421
G1 X45.543 Y-64.601 E8.64456
G1 X45.69 Y-63.917 E8.66492
G1 X45.757 Y-63.221 E8.68527
G1 X45.751 Y-62.854 E8.69595
G1 X45.79 Y-62.521 E8.70571
G1 X45.992 Y-61.016 E8.7499
G1 X46.046 Y-60.318 E8.77028
G1 X46.019 Y-59.619 E8.79064
G1 X45.914 Y-58.927 E8.81101
G1 X45.816 Y-58.533 E8.82282
G1 X45.777 Y-58.395 E8.827
G1 X45.549 Y-57.734 E8.84734
G1 X45.246 Y-57.103 E8.86772
G1 X44.874 Y-56.51 E8.88809
G1 X44.436 Y-55.964 E8.90846
G1 X43.939 Y-55.472 E8.92881
G1 X43.412 Y-55.055 E8.94837
G1 X43.212 Y-54.914 E8.95549
G1 X42.618 Y-54.544 E8.97586
G1 X41.986 Y-54.244 E8.99622
G1 X41.87 Y-54.205 E8.99978
G1 X41.631 Y-53.909 E9.01085
G1 X41.132 Y-53.419 E9.0312
G1 X40.774 Y-53.128 E9.04463
G1 X40.573 Y-52.977 E9.05195
G1 X39.99 Y-52.589 E9.07233
G1 X39.367 Y-52.271 E9.09268
G1 X39.201 Y-52.209 E9.09784
G1 X39.002 Y-51.947 E9.10742
G1 X38.518 Y-51.442 E9.12777
G1 X38.11 Y-51.093 E9.1434
G1 X37.91 Y-50.937 E9.15078
G1 X37.335 Y-50.539 E9.17113
G1 X36.718 Y-50.209 E9.19149
G1 X36.573 Y-50.152 E9.19603
G1 X36.423 Y-49.94 E9.20359
G1 X35.955 Y-49.419 E9.22397
G1 X35.526 Y-49.031 E9.2408
G1 X35.33 Y-48.87 E9.24818
G1 X34.765 Y-48.458 E9.26853
G1 X34.156 Y-48.112 E9.28892
G1 X34.004 Y-48.047 E9.29373
G1 X33.668 Y-47.598 E9.31005
G1 X33.188 Y-47.089 E9.33041
G1 X32.882 Y-46.819 E9.34229
G1 X32.686 Y-46.657 E9.34969
G1 X32.122 Y-46.243 E9.37005
G1 X31.515 Y-45.895 E9.39041
G1 X31.453 Y-45.869 E9.39237
G1 X31.214 Y-45.52 E9.40468
G1 X30.755 Y-44.992 E9.42504
G1 X30.425 Y-44.677 E9.43832
G1 X30.236 Y-44.51 E9.44566
G1 X29.686 Y-44.077 E9.46603
G1 X29.09 Y-43.71 E9.4864
G1 X28.972 Y-43.655 E9.49019
G1 X28.771 Y-43.341 E9.50104
G1 X28.329 Y-42.798 E9.52141
G1 X27.916 Y-42.388 E9.53835
G1 X27.73 Y-42.22 E9.54564
G1 X27.184 Y-41.781 E9.56603
G1 X26.593 Y-41.407 E9.58639
G1 X26.531 Y-41.377 E9.58839
G1 X26.331 Y-41.051 E9.59952
G1 X25.9 Y-40.5 E9.61988
G1 X25.485 Y-40.073 E9.63721
G1 X25.301 Y-39.901 E9.64454
G1 X24.763 Y-39.453 E9.66492
G1 X24.178 Y-39.069 E9.68528
G1 X24.14 Y-39.05 E9.68652
G1 X23.932 Y-38.697 E9.69844
G1 X23.51 Y-38.139 E9.7188
G1 X23.151 Y-37.752 E9.73416
G1 X22.972 Y-37.575 E9.74149
G1 X22.447 Y-37.112 E9.76186
G1 X21.873 Y-36.712 E9.78222
G1 X21.802 Y-36.674 E9.78457
G1 X21.604 Y-36.32 E9.79637
G1 X21.194 Y-35.753 E9.81673
G1 X20.856 Y-35.37 E9.8316
G1 X20.68 Y-35.187 E9.83899
G1 X20.167 Y-34.711 E9.85936
G1 X19.603 Y-34.297 E9.87972
G1 X19.516 Y-34.247 E9.88264
G1 X19.358 Y-33.944 E9.89258
G1 X18.967 Y-33.364 E9.91294
G1 X18.577 Y-32.902 E9.93053
G1 X18.403 Y-32.715 E9.93797
G1 X17.898 Y-32.23 E9.95835
G1 X17.341 Y-31.807 E9.9787
G1 X17.283 Y-31.772 E9.98067
G1 X17.105 Y-31.419 E9.99218
G1 X16.722 Y-30.834 E10.01253
G1 X16.354 Y-30.384 E10.02944
G1 X16.186 Y-30.197 E10.03676
G1 X15.69 Y-29.704 E10.05711
G1 X15.14 Y-29.271 E10.07748
G1 X15.102 Y-29.247 E10.07879
G1 X14.948 Y-28.919 E10.08934
G1 X14.58 Y-28.324 E10.1097
G1 X14.231 Y-27.872 E10.12632
G1 X14.068 Y-27.68 E10.13365
G1 X13.586 Y-27.173 E10.15401
G1 X13.048 Y-26.725 E10.17438
G1 X12.977 Y-26.678 E10.17686
G1 X12.834 Y-26.355 E10.18714
G1 X12.48 Y-25.752 E10.20749
G1 X12.137 Y-25.287 E10.2243
G1 X11.977 Y-25.09 E10.23169
G1 X11.506 Y-24.572 E10.25206
G1 X10.979 Y-24.113 E10.2724
G1 X10.91 Y-24.066 E10.27483
G1 X10.794 Y-23.78 E10.28382
G1 X10.458 Y-23.167 E10.30416
G1 X10.082 Y-22.63 E10.32324
G1 X9.926 Y-22.431 E10.3306
G1 X9.464 Y-21.906 E10.35095
G1 X8.945 Y-21.437 E10.37131
G1 X8.894 Y-21.401 E10.37312
G1 X8.735 Y-21.008 E10.38546
G1 X8.401 Y-20.394 E10.4058
G1 X8.025 Y-19.856 E10.4249
G1 X7.868 Y-19.655 E10.43233
G1 X7.406 Y-19.129 E10.4527
G1 X6.946 Y-18.711 E10.47079
G1 X6.806 Y-18.338 E10.48239
G1 X6.488 Y-17.714 E10.50277
G1 X6.185 Y-17.245 E10.51902
G1 X6.038 Y-17.039 E10.52638
G1 X5.599 Y-16.494 E10.54675
G1 X5.102 Y-16.002 E10.5671
G1 X5.049 Y-15.96 E10.56907
G1 X4.943 Y-15.647 E10.57869
G1 X4.646 Y-15.014 E10.59904
G1 X4.289 Y-14.435 E10.61883
G1 X4.145 Y-14.228 E10.62617
G1 X3.713 Y-13.678 E10.64652
G1 X3.222 Y-13.18 E10.66688
G1 X3.211 Y-13.171 E10.66729
G1 X3.109 Y-12.849 E10.67712
G1 X2.824 Y-12.211 E10.69746
G1 X2.532 Y-11.707 E10.71441
G1 X2.394 Y-11.493 E10.72182
G1 X1.981 Y-10.927 E10.74221
G1 X1.507 Y-10.412 E10.76258
G1 X1.436 Y-10.351 E10.7653
G1 X1.338 Y-10.018 E10.77541
G1 X1.066 Y-9.373 E10.79578
G1 X0.786 Y-8.866 E10.81263
G1 X0.653 Y-8.65 E10.82002
G1 X0.252 Y-8.076 E10.84039
G1 X-.211 Y-7.551 E10.86076
G1 X-.277 Y-7.491 E10.86336
G1 X-.372 Y-7.143 E10.87386
G1 X-.631 Y-6.494 E10.89419
G1 X-.911 Y-5.964 E10.91164
G1 X-1.039 Y-5.748 E10.91895
G1 X-1.429 Y-5.168 E10.93929
G1 X-1.883 Y-4.636 E10.95964
G1 X-1.929 Y-4.593 E10.96147
G1 X-2.018 Y-4.239 E10.9721
G1 X-2.264 Y-3.584 E10.99246
G1 X-2.529 Y-3.057 E11.00963
G1 X-2.653 Y-2.837 E11.01698
G1 X-3.031 Y-2.248 E11.03734
G0 F11400 X-3.326 Y-2.437
G1 F1200 X-3.758 Y-1.913 E11.05711
G1 X-3.833 Y-1.841 E11.06013
G1 X-3.952 Y-1.341 E11.07509
G1 X-4.186 Y-.703 E11.09487
G1 X-4.392 Y-.276 E11.10866
G1 X-4.512 Y-0.052 E11.11606
G1 X-4.868 Y0.527 E11.13584
G1 X-5.289 Y1.06 E11.15561
G1 X-5.366 Y1.137 E11.15878
G1 X-5.458 Y1.585 E11.17209
G1 X-5.672 Y2.23 E11.19186
G1 X-5.872 Y2.675 E11.20606
G1 X-5.984 Y2.899 E11.21335
G1 X-6.323 Y3.487 E11.2331
G1 X-6.729 Y4.032 E11.25288
G1 X-6.826 Y4.135 E11.257
G1 X-6.943 Y4.705 E11.27393
G1 X-7.156 Y5.35 E11.2937
G1 X-7.296 Y5.672 E11.30392
G1 X-7.404 Y5.902 E11.31132
G1 X-7.728 Y6.499 E11.33108
G1 X-8.12 Y7.053 E11.35083
G1 X-8.227 Y7.172 E11.35549
G1 X-8.306 Y7.653 E11.36968
G1 X-8.495 Y8.305 E11.38943
G1 X-8.672 Y8.747 E11.40329
G1 X-8.775 Y8.976 E11.4106
G1 X-9.09 Y9.578 E11.43037
G1 X-9.473 Y10.139 E11.45014
G1 X-9.92 Y10.651 E11.46992
G1 X-10.423 Y11.107 E11.48968
G1 X-10.73 Y11.338 E11.50086
G1 X-10.81 Y11.394 E11.5037
G1 X-11.389 Y11.75 E11.52348
G1 X-11.79 Y11.936 E11.53635
G1 X-11.817 Y11.972 E11.53766
G1 X-12.255 Y12.491 E11.55742
G1 X-12.751 Y12.956 E11.57721
G1 X-13.298 Y13.359 E11.59698
G1 X-13.888 Y13.695 E11.61674
G1 X-14.514 Y13.96 E11.63652
G1 X-15.167 Y14.149 E11.65631
G1 X-15.837 Y14.26 E11.67607
G1 X-15.908 Y14.263 E11.67814
G1 X-16.831 Y16.735 E11.75493
G1 X-18.095 Y20.401 E11.86779
G1 X-19.286 Y24.159 E11.98252
G1 X-20.36 Y27.852 E12.09444
G1 X-21.354 Y31.616 E12.20774
G1 X-22.276 Y35.478 E12.32329
G1 X-23.082 Y39.273 E12.4362
G1 X-23.811 Y43.17 E12.55158
G1 X-24.428 Y47.004 E12.6646
G1 X-24.954 Y50.861 E12.77789
G1 X-25.389 Y54.774 E12.89247
G1 X-25.725 Y58.636 E13.00528
G1 X-25.965 Y62.539 E13.11909
G1 X-26.112 Y66.438 E13.23264
G1 X-26.164 Y70.42 E13.34853
G1 X-26.213 Y71.098 E13.36832
G1 X-26.341 Y71.765 E13.38808
G1 X-26.547 Y72.412 E13.40784
G1 X-26.827 Y73.031 E13.42762
G1 X-27.178 Y73.613 E13.4474
G1 X-27.595 Y74.149 E13.46716
G1 X-27.876 Y74.448 E13.4791
G1 X-27.978 Y74.549 E13.48328
G1 X-28.488 Y74.997 E13.50303
G1 X-29.047 Y75.383 E13.5228
G1 X-29.648 Y75.701 E13.54259
G1 X-30.281 Y75.945 E13.56234
G1 X-30.94 Y76.114 E13.58213
G1 X-31.613 Y76.204 E13.6019
G1 X-32.041 Y76.22 E13.61436
G1 X-38.836 Y76.22 E13.81211
G1 X-39.514 Y76.18 E13.83188
G1 X-40.183 Y76.061 E13.85165
G1 X-40.833 Y75.864 E13.87142
G1 X-41.456 Y75.592 E13.8912
G1 X-42.042 Y75.248 E13.91098
G1 X-42.584 Y74.838 E13.93076
G1 X-42.939 Y74.509 E13.94484
G1 X-43.042 Y74.405 E13.9491
G1 X-43.491 Y73.895 E13.96888
G1 X-43.877 Y73.336 E13.98865
G1 X-44.194 Y72.735 E14.00842
G1 X-44.439 Y72.101 E14.0282
G1 X-44.608 Y71.443 E14.04797
G1 X-44.698 Y70.77 E14.06773
G1 X-44.714 Y70.27 E14.08229
G1 X-44.667 Y66.438 E14.19382
G1 X-44.663 Y66.307 E14.19764
G1 X-44.515 Y62.088 E14.3205
G1 X-44.509 Y61.946 E14.32463
G1 X-44.257 Y57.729 E14.44758
G1 X-44.247 Y57.587 E14.45172
G1 X-43.892 Y53.384 E14.57447
G1 X-43.878 Y53.243 E14.5786
G1 X-43.419 Y49.043 E14.70156
G1 X-43.402 Y48.903 E14.70566
G1 X-42.842 Y44.724 E14.82837
G1 X-42.821 Y44.584 E14.83249
G1 X-42.158 Y40.415 E14.95534
G1 X-42.134 Y40.274 E14.9595
G1 X-41.368 Y36.122 E15.08238
G1 X-41.341 Y35.983 E15.0865
G1 X-40.473 Y31.851 E15.20937
G1 X-40.442 Y31.712 E15.21352
G1 X-39.473 Y27.604 E15.33635
G1 X-39.438 Y27.467 E15.34047
G1 X-38.321 Y23.203 E15.46875
G1 X-38.283 Y23.061 E15.47303
G1 X-37.162 Y19.186 E15.59042
G1 X-37.122 Y19.057 E15.59435
G1 X-35.854 Y15.03 E15.71722
G1 X-35.81 Y14.894 E15.72138
G1 X-34.442 Y10.896 E15.84436
G1 X-34.394 Y10.762 E15.8485
G1 X-32.931 Y6.807 E15.97122
G1 X-32.881 Y6.676 E15.97531
G1 X-31.32 Y2.753 E16.09818
G1 X-31.266 Y2.622 E16.1023
G1 X-29.61 Y-1.26 E16.22513
G1 X-29.552 Y-1.392 E16.22933
G1 X-27.798 Y-5.235 E16.35227
G1 X-27.739 Y-5.36 E16.35629
G1 X-25.896 Y-9.154 E16.47904
G1 X-25.831 Y-9.282 E16.48322
G1 X-23.893 Y-13.032 E16.60607
G1 X-23.828 Y-13.156 E16.61014
G1 X-21.8 Y-16.857 E16.73296
G1 X-21.729 Y-16.982 E16.73715
G1 X-19.608 Y-20.634 E16.86005
G1 X-19.536 Y-20.755 E16.86415
G1 X-17.328 Y-24.352 E16.98698
G1 X-17.251 Y-24.473 E16.99116
G1 X-14.954 Y-28.015 E17.11402
G1 X-14.877 Y-28.131 E17.11807
G1 X-12.495 Y-31.617 E17.24094
G1 X-12.412 Y-31.735 E17.24514
G1 X-9.945 Y-35.159 E17.36796
G1 X-9.862 Y-35.272 E17.37204
G1 X-7.311 Y-38.637 E17.49493
G1 X-7.223 Y-38.749 E17.49907
G1 X-4.588 Y-42.052 E17.62204
G1 X-4.499 Y-42.162 E17.62616
G1 X-1.789 Y-45.393 E17.74889
G1 X-1.697 Y-45.5 E17.75299
G1 X1.093 Y-48.666 E17.8758
G1 X1.188 Y-48.771 E17.87992
G1 X4.056 Y-51.87 E18.00281
G1 X4.155 Y-51.975 E18.00701
G1 X7.1 Y-55.001 E18.1299
G1 X7.161 Y-55.062 E18.13241
G1 X7.563 Y-55.463 E18.14893
G1 X7.607 Y-55.506 E18.15072
G1 X10.423 Y-58.255 E18.26525
G1 X10.526 Y-58.354 E18.26941
G1 X13.619 Y-61.228 E18.39228
G1 X13.725 Y-61.323 E18.39643
G1 X16.887 Y-64.119 E18.51926
G1 X16.993 Y-64.211 E18.52335
G1 X20.222 Y-66.929 E18.64618
G1 X20.333 Y-67.02 E18.65036
G1 X23.632 Y-69.66 E18.77333
G1 X23.744 Y-69.748 E18.77747
G1 X27.102 Y-72.302 E18.90025
G1 X27.215 Y-72.385 E18.90433
G1 X30.639 Y-74.86 E19.02729
